;FLAVOR:Marlin
;TIME:12161
;Filament used: 14.6583m
;Layer height: 0.16
;MINX:76.3
;MINY:41.8
;MINZ:0.16
;MAXX:158.7
;MAXY:93.2
;MAXZ:70.44
;Generated with Cura_SteamEngine 4.13.0
M140 S60
M105
M190 S60
M104 S210
M105
M109 S210
M82 ;absolute extrusion mode
; Ender 3 Custom Start G-code
G92 E0 ; Reset Extruder
G28 ; Home all axes
G1 Z2.0 F3000 ; Move Z Axis up little to prevent scratching of Heat Bed
G1 X0.1 Y20 Z0.3 F5000.0 ; Move to start position
G1 X0.1 Y200.0 Z0.3 F1500.0 E15 ; Draw the first line
G1 X0.4 Y200.0 Z0.3 F5000.0 ; Move to side a little
G1 X0.4 Y20 Z0.3 F1500.0 E30 ; Draw the second line
G92 E0 ; Reset Extruder
G1 Z2.0 F3000 ; Move Z Axis up little to prevent scratching of Heat Bed
G1 X5 Y20 Z0.3 F5000.0 ; Move over to prevent blob squish
G92 E0
G92 E0
G1 F2700 E-5
;LAYER_COUNT:439
;LAYER:0
M107
G1 F300 Z0.36
G0 F6000 X76.923 Y43.633 Z0.36
;TYPE:SKIRT
G1 F300 Z0.16
G1 F2700 E0
G1 F1200 X77.413 Y43.03 E0.02067
G1 X77.53 Y42.913 E0.02508
G1 X77.947 Y42.553 E0.03974
G1 X78.411 Y42.256 E0.05439
G1 X78.914 Y42.03 E0.06907
G1 X79.444 Y41.879 E0.08373
G1 X80.217 Y41.8 E0.10441
G1 X154.783 Y41.8 E2.08847
G1 X155.333 Y41.84 E2.10314
G1 X155.871 Y41.959 E2.1178
G1 X156.386 Y42.155 E2.13246
G1 X156.867 Y42.423 E2.14711
G1 X157.47 Y42.913 E2.16779
G1 X157.587 Y43.03 E2.17219
G1 X157.947 Y43.447 E2.18685
G1 X158.244 Y43.911 E2.20151
G1 X158.47 Y44.414 E2.21618
G1 X158.621 Y44.944 E2.23084
G1 X158.7 Y45.717 E2.25152
G1 X158.7 Y57.168 E2.55621
G1 X158.66 Y57.718 E2.57088
G1 X158.541 Y58.256 E2.58554
G1 X158.283 Y58.899 E2.60398
G1 X158.239 Y58.985 E2.60655
G1 X157.953 Y59.456 E2.62121
G1 X157.602 Y59.881 E2.63588
G1 X157.091 Y60.327 E2.65392
G1 X147.7 Y67.157 E2.9629
G1 X147.7 Y89.283 E3.55163
G1 X147.66 Y89.833 E3.5663
G1 X147.541 Y90.371 E3.58096
G1 X147.345 Y90.886 E3.59562
G1 X147.077 Y91.367 E3.61028
G1 X146.587 Y91.97 E3.63095
G1 X146.47 Y92.087 E3.63535
G1 X146.053 Y92.447 E3.65001
G1 X145.589 Y92.744 E3.66467
G1 X145.086 Y92.97 E3.67934
G1 X144.556 Y93.121 E3.69401
G1 X143.783 Y93.2 E3.71468
G1 X112.541 Y93.2 E4.54597
G1 X111.991 Y93.16 E4.56064
G1 X111.453 Y93.041 E4.57531
G1 X111.056 Y92.898 E4.58653
G1 X110.983 Y92.867 E4.58864
G1 X110.492 Y92.615 E4.60333
G1 X110.044 Y92.295 E4.61798
G1 X109.767 Y92.042 E4.62796
G1 X92.111 Y74.2 E5.29586
G1 X83.049 Y74.2 E5.53698
G1 X82.499 Y74.16 E5.55165
G1 X81.961 Y74.041 E5.56631
G1 X81.446 Y73.845 E5.58098
G1 X80.807 Y73.468 E5.60072
G1 X80.703 Y73.392 E5.60414
G1 X80.283 Y73.036 E5.61879
G1 X79.919 Y72.622 E5.63346
G1 X79.618 Y72.16 E5.64813
G1 X79.34 Y71.525 E5.66658
G1 X76.5 Y63.002 E5.90562
G1 X76.351 Y62.388 E5.92243
G1 X76.346 Y62.356 E5.92329
G1 X76.3 Y61.769 E5.93896
G1 X76.3 Y45.717 E6.36607
G1 X76.34 Y45.167 E6.38074
G1 X76.459 Y44.629 E6.39541
G1 X76.655 Y44.114 E6.41007
G1 X76.923 Y43.633 E6.42472
G0 F6000 X77.32 Y43.759
G1 F1200 X77.696 Y43.313 E6.44024
G1 X77.813 Y43.196 E6.44464
G1 X78.209 Y42.857 E6.45851
G1 X78.651 Y42.582 E6.47236
G1 X79.131 Y42.378 E6.48624
G1 X79.636 Y42.25 E6.5001
G1 X80.217 Y42.2 E6.51562
G1 X154.783 Y42.2 E8.49968
G1 X155.303 Y42.24 E8.51356
G1 X155.81 Y42.359 E8.52741
G1 X156.293 Y42.554 E8.54127
G1 X156.741 Y42.82 E8.55514
G1 X157.187 Y43.196 E8.57066
G1 X157.304 Y43.313 E8.57506
G1 X157.643 Y43.709 E8.58893
G1 X157.918 Y44.151 E8.60278
G1 X158.122 Y44.631 E8.61666
G1 X158.25 Y45.136 E8.63052
G1 X158.3 Y45.717 E8.64604
G1 X158.3 Y57.168 E8.95073
G1 X158.26 Y57.688 E8.96461
G1 X158.141 Y58.195 E8.97846
G1 X157.927 Y58.717 E8.99347
G1 X157.883 Y58.803 E8.99604
G1 X157.611 Y59.247 E9.0099
G1 X157.274 Y59.645 E9.02378
G1 X156.856 Y60.004 E9.03844
G1 X147.3 Y66.954 E9.35284
G1 X147.3 Y89.283 E9.94697
G1 X147.26 Y89.803 E9.96085
G1 X147.141 Y90.31 E9.97471
G1 X146.946 Y90.793 E9.98857
G1 X146.68 Y91.241 E10.00243
G1 X146.304 Y91.687 E10.01795
G1 X146.187 Y91.804 E10.02235
G1 X145.791 Y92.143 E10.03622
G1 X145.349 Y92.418 E10.05008
G1 X144.869 Y92.622 E10.06395
G1 X144.364 Y92.75 E10.07782
G1 X143.783 Y92.8 E10.09333
G1 X112.541 Y92.8 E10.92462
G1 X112.021 Y92.76 E10.9385
G1 X111.514 Y92.641 E10.95236
G1 X111.212 Y92.53 E10.96092
G1 X111.139 Y92.499 E10.96303
G1 X110.676 Y92.259 E10.9769
G1 X110.256 Y91.951 E10.99076
G1 X110.051 Y91.761 E10.9982
G1 X92.277 Y73.8 E11.67055
G1 X83.049 Y73.8 E11.91609
G1 X82.529 Y73.76 E11.92997
G1 X82.022 Y73.641 E11.94383
G1 X81.539 Y73.446 E11.95769
G1 X81.043 Y73.145 E11.97313
G1 X80.939 Y73.069 E11.97655
G1 X80.543 Y72.73 E11.99042
G1 X80.203 Y72.335 E12.00429
G1 X79.928 Y71.892 E12.01816
G1 X79.719 Y71.399 E12.03241
G1 X76.879 Y62.876 E12.27145
G1 X76.746 Y62.326 E12.28651
G1 X76.741 Y62.294 E12.28737
G1 X76.7 Y61.769 E12.30138
G1 X76.7 Y45.717 E12.7285
G1 X76.74 Y45.197 E12.74237
G1 X76.859 Y44.69 E12.75623
G1 X77.054 Y44.207 E12.77009
G1 X77.32 Y43.759 E12.78395
G0 F6000 X77.718 Y43.893
G1 F1200 X77.979 Y43.596 E12.79447
G1 X78.096 Y43.479 E12.79888
G1 X78.469 Y43.162 E12.8119
G1 X78.889 Y42.91 E12.82493
G1 X79.344 Y42.73 E12.83795
G1 X79.822 Y42.626 E12.85097
G1 X80.217 Y42.6 E12.8615
G1 X154.783 Y42.6 E14.84556
G1 X155.271 Y42.64 E14.85859
G1 X155.746 Y42.759 E14.87162
G1 X156.195 Y42.953 E14.88463
G1 X156.607 Y43.218 E14.89767
G1 X156.904 Y43.479 E14.90819
G1 X157.021 Y43.596 E14.91259
G1 X157.338 Y43.969 E14.92562
G1 X157.59 Y44.389 E14.93865
G1 X157.77 Y44.844 E14.95167
G1 X157.874 Y45.322 E14.96469
G1 X157.9 Y45.717 E14.97522
G1 X157.9 Y57.168 E15.27991
G1 X157.86 Y57.656 E15.29294
G1 X157.741 Y58.131 E15.30597
G1 X157.571 Y58.534 E15.3176
G1 X157.527 Y58.62 E15.32017
G1 X157.269 Y59.037 E15.33322
G1 X156.947 Y59.405 E15.34623
G1 X156.621 Y59.68 E15.35758
G1 X146.9 Y66.75 E15.67741
G1 X146.9 Y89.283 E16.27697
G1 X146.86 Y89.771 E16.29
G1 X146.741 Y90.246 E16.30303
G1 X146.547 Y90.695 E16.31605
G1 X146.282 Y91.107 E16.32908
G1 X146.021 Y91.404 E16.3396
G1 X145.904 Y91.521 E16.344
G1 X145.531 Y91.838 E16.35703
G1 X145.111 Y92.09 E16.37006
G1 X144.656 Y92.27 E16.38308
G1 X144.178 Y92.374 E16.3961
G1 X143.783 Y92.4 E16.40663
G1 X112.541 Y92.4 E17.23792
G1 X112.053 Y92.36 E17.25095
G1 X111.368 Y92.161 E17.26993
G1 X111.295 Y92.13 E17.27204
G1 X110.862 Y91.903 E17.28505
G1 X110.336 Y91.479 E17.30302
G1 X92.446 Y73.4 E17.97978
G1 X83.049 Y73.4 E18.22982
G1 X82.561 Y73.36 E18.24285
G1 X82.086 Y73.241 E18.25588
G1 X81.637 Y73.047 E18.26889
G1 X81.279 Y72.822 E18.28014
G1 X81.175 Y72.746 E18.28357
G1 X80.805 Y72.426 E18.29658
G1 X80.491 Y72.05 E18.30962
G1 X80.243 Y71.628 E18.32264
G1 X80.099 Y71.272 E18.33286
G1 X77.259 Y62.749 E18.5719
G1 X77.141 Y62.264 E18.58518
G1 X77.136 Y62.232 E18.58604
G1 X77.1 Y61.769 E18.5984
G1 X77.1 Y45.717 E19.02551
G1 X77.14 Y45.229 E19.03854
G1 X77.259 Y44.754 E19.05157
G1 X77.453 Y44.305 E19.06459
G1 X77.718 Y43.893 E19.07762
G0 F6000 X77.852 Y44.411
G1 F1200 X78.262 Y43.879 E19.09549
G1 X78.379 Y43.762 E19.0999
G1 X78.728 Y43.469 E19.11202
G1 X79.123 Y43.242 E19.12414
G1 X79.551 Y43.087 E19.13625
G1 X80.217 Y43 E19.15413
G1 X154.783 Y43 E21.13819
G1 X155.237 Y43.04 E21.15031
G1 X155.677 Y43.158 E21.16243
G1 X156.089 Y43.352 E21.17455
G1 X156.621 Y43.762 E21.19242
G1 X156.738 Y43.879 E21.19683
G1 X157.031 Y44.228 E21.20895
G1 X157.258 Y44.623 E21.22107
G1 X157.413 Y45.051 E21.23318
G1 X157.5 Y45.717 E21.25106
G1 X157.5 Y57.168 E21.55575
G1 X157.46 Y57.622 E21.56787
G1 X157.342 Y58.062 E21.57999
G1 X157.215 Y58.352 E21.58842
G1 X157.171 Y58.438 E21.59099
G1 X156.928 Y58.824 E21.60312
G1 X156.622 Y59.162 E21.61526
G1 X156.385 Y59.357 E21.62342
G1 X146.5 Y66.546 E21.94865
G1 X146.5 Y89.283 E22.55363
G1 X146.46 Y89.737 E22.56576
G1 X146.342 Y90.177 E22.57788
G1 X146.148 Y90.589 E22.59
G1 X145.738 Y91.121 E22.60787
G1 X145.621 Y91.238 E22.61227
G1 X145.272 Y91.531 E22.6244
G1 X144.877 Y91.758 E22.63652
G1 X144.449 Y91.913 E22.64863
G1 X143.783 Y92 E22.6665
G1 X112.541 Y92 E23.4978
G1 X112.087 Y91.96 E23.50992
G1 X111.525 Y91.793 E23.52552
G1 X111.452 Y91.762 E23.52763
G1 X111.05 Y91.548 E23.53975
G1 X110.62 Y91.198 E23.5545
G1 X92.612 Y73 E24.23572
G1 X83.049 Y73 E24.49017
G1 X82.595 Y72.96 E24.5023
G1 X82.155 Y72.842 E24.51442
G1 X81.743 Y72.648 E24.52654
G1 X81.515 Y72.499 E24.53379
G1 X81.411 Y72.423 E24.53721
G1 X81.068 Y72.123 E24.54934
G1 X80.783 Y71.768 E24.56145
G1 X80.564 Y71.368 E24.57359
G1 X80.478 Y71.146 E24.57992
G1 X77.638 Y62.623 E24.81896
G1 X77.536 Y62.202 E24.83049
G1 X77.531 Y62.17 E24.83135
G1 X77.5 Y61.769 E24.84205
G1 X77.5 Y45.717 E25.26916
G1 X77.54 Y45.263 E25.28129
G1 X77.658 Y44.823 E25.29341
G1 X77.852 Y44.411 E25.30553
G0 F6000 X78.251 Y44.526
G1 F1200 X78.544 Y44.161 E25.31798
G1 X78.661 Y44.044 E25.32238
G1 X78.985 Y43.778 E25.33354
G1 X79.352 Y43.577 E25.34467
G1 X79.752 Y43.45 E25.35584
G1 X80.217 Y43.4 E25.36828
G1 X154.783 Y43.4 E27.35234
G1 X155.2 Y43.44 E27.36349
G1 X155.602 Y43.558 E27.37464
G1 X155.974 Y43.751 E27.38579
G1 X156.339 Y44.044 E27.39824
G1 X156.456 Y44.161 E27.40265
G1 X156.722 Y44.485 E27.4138
G1 X156.923 Y44.852 E27.42493
G1 X157.05 Y45.252 E27.4361
G1 X157.1 Y45.717 E27.44854
G1 X157.1 Y57.168 E27.75323
G1 X157.06 Y57.585 E27.76438
G1 X156.859 Y58.17 E27.78084
G1 X156.815 Y58.256 E27.78341
G1 X156.589 Y58.609 E27.79456
G1 X156.15 Y59.033 E27.8108
G1 X146.1 Y66.342 E28.14145
G1 X146.1 Y89.283 E28.75187
G1 X146.06 Y89.7 E28.76302
G1 X145.942 Y90.102 E28.77417
G1 X145.749 Y90.474 E28.78532
G1 X145.456 Y90.839 E28.79777
G1 X145.339 Y90.956 E28.80217
G1 X145.015 Y91.222 E28.81333
G1 X144.648 Y91.423 E28.82446
G1 X144.248 Y91.55 E28.83563
G1 X143.783 Y91.6 E28.84807
G1 X112.541 Y91.6 E29.67936
G1 X112.124 Y91.56 E29.69051
G1 X111.681 Y91.425 E29.70283
G1 X111.608 Y91.394 E29.70494
G1 X111.24 Y91.194 E29.71609
G1 X110.904 Y90.916 E29.72769
G1 X92.779 Y72.6 E30.41333
G1 X83.049 Y72.6 E30.67223
G1 X82.632 Y72.56 E30.68337
G1 X82.23 Y72.442 E30.69452
G1 X81.751 Y72.176 E30.7091
G1 X81.647 Y72.1 E30.71253
G1 X81.334 Y71.822 E30.72366
G1 X81.079 Y71.489 E30.73482
G1 X80.858 Y71.019 E30.74864
G1 X78.018 Y62.496 E30.98768
G1 X77.931 Y62.141 E30.99741
G1 X77.926 Y62.109 E30.99827
G1 X77.9 Y61.769 E31.00734
G1 X77.9 Y45.717 E31.43446
G1 X77.94 Y45.3 E31.4456
G1 X78.058 Y44.898 E31.45675
G1 X78.251 Y44.526 E31.4679
G0 F6000 X78.648 Y44.653
G1 F1200 X78.827 Y44.444 E31.47522
G1 X78.944 Y44.327 E31.47963
G1 X79.239 Y44.089 E31.48971
G1 X79.577 Y43.918 E31.49979
G1 X79.943 Y43.821 E31.50987
G1 X80.217 Y43.8 E31.51718
G1 X154.783 Y43.8 E33.50124
G1 X155.16 Y43.84 E33.51133
G1 X155.52 Y43.958 E33.52141
G1 X155.847 Y44.148 E33.53147
G1 X156.056 Y44.327 E33.53879
G1 X156.173 Y44.444 E33.54319
G1 X156.411 Y44.739 E33.55328
G1 X156.582 Y45.077 E33.56336
G1 X156.679 Y45.443 E33.57343
G1 X156.7 Y45.717 E33.58075
G1 X156.7 Y57.168 E33.88543
G1 X156.66 Y57.545 E33.89552
G1 X156.502 Y57.988 E33.90804
G1 X156.458 Y58.074 E33.91061
G1 X156.251 Y58.391 E33.92068
G1 X155.915 Y58.71 E33.93301
G1 X145.7 Y66.139 E34.26909
G1 X145.7 Y89.283 E34.88491
G1 X145.66 Y89.66 E34.895
G1 X145.542 Y90.02 E34.90508
G1 X145.352 Y90.347 E34.91514
G1 X145.173 Y90.556 E34.92246
G1 X145.056 Y90.673 E34.92686
G1 X144.761 Y90.911 E34.93695
G1 X144.423 Y91.082 E34.94703
G1 X144.057 Y91.179 E34.9571
G1 X143.783 Y91.2 E34.96441
G1 X112.541 Y91.2 E35.79571
G1 X112.164 Y91.16 E35.80579
G1 X111.837 Y91.057 E35.81492
G1 X111.764 Y91.026 E35.81703
G1 X111.433 Y90.842 E35.8271
G1 X111.189 Y90.635 E35.83562
G1 X92.946 Y72.2 E36.52571
G1 X83.049 Y72.2 E36.78905
G1 X82.672 Y72.16 E36.79914
G1 X82.312 Y72.042 E36.80922
G1 X81.987 Y71.853 E36.81923
G1 X81.883 Y71.777 E36.82265
G1 X81.602 Y71.523 E36.83273
G1 X81.381 Y71.215 E36.84282
G1 X81.237 Y70.893 E36.8522
G1 X78.397 Y62.37 E37.09124
G1 X78.327 Y62.079 E37.09921
G1 X78.322 Y62.047 E37.10007
G1 X78.3 Y61.769 E37.10749
G1 X78.3 Y45.717 E37.5346
G1 X78.34 Y45.34 E37.54469
G1 X78.458 Y44.98 E37.55477
G1 X78.648 Y44.653 E37.56483
G0 F6000 X78.857 Y45.073
G1 F1200 X79.11 Y44.727 E37.57624
G1 X79.227 Y44.61 E37.58064
G1 X79.49 Y44.404 E37.58953
G1 X79.794 Y44.265 E37.59842
G1 X80.217 Y44.2 E37.60981
G1 X154.783 Y44.2 E39.59387
G1 X155.115 Y44.24 E39.60277
G1 X155.427 Y44.357 E39.61164
G1 X155.773 Y44.61 E39.62304
G1 X155.89 Y44.727 E39.62744
G1 X156.096 Y44.99 E39.63633
G1 X156.235 Y45.294 E39.64523
G1 X156.3 Y45.717 E39.65661
G1 X156.3 Y57.168 E39.9613
G1 X156.26 Y57.5 E39.9702
G1 X156.146 Y57.806 E39.97889
G1 X156.102 Y57.892 E39.98146
G1 X155.916 Y58.169 E39.99034
G1 X155.679 Y58.386 E39.99889
G1 X145.3 Y65.934 E40.34036
G1 X145.3 Y89.283 E40.96163
G1 X145.26 Y89.615 E40.97053
G1 X145.143 Y89.927 E40.9794
G1 X144.89 Y90.273 E40.9908
G1 X144.773 Y90.39 E40.99521
G1 X144.51 Y90.596 E41.00409
G1 X144.206 Y90.735 E41.01299
G1 X143.783 Y90.8 E41.02438
G1 X112.541 Y90.8 E41.85567
G1 X112.209 Y90.76 E41.86456
G1 X111.921 Y90.658 E41.87269
G1 X111.631 Y90.491 E41.8816
G1 X111.473 Y90.354 E41.88716
G1 X93.113 Y71.8 E42.5817
G1 X83.049 Y71.8 E42.84949
G1 X82.717 Y71.76 E42.85838
G1 X82.405 Y71.643 E42.86725
G1 X82.119 Y71.454 E42.87637
G1 X81.875 Y71.226 E42.88526
G1 X81.691 Y70.947 E42.89415
G1 X81.617 Y70.767 E42.89933
G1 X78.777 Y62.244 E43.13837
G1 X78.717 Y61.985 E43.14544
G1 X78.7 Y61.769 E43.15121
G1 X78.7 Y45.717 E43.57832
G1 X78.74 Y45.385 E43.58722
G1 X78.857 Y45.073 E43.59608
G0 F6000 X79.256 Y45.181
G1 F1200 X79.51 Y44.893 E43.6063
G1 X79.736 Y44.724 E43.61381
G1 X80 Y44.624 E43.62132
G1 X80.217 Y44.6 E43.62713
G1 X154.783 Y44.6 E45.61119
G1 X155.062 Y44.64 E45.61869
G1 X155.319 Y44.756 E45.62619
G1 X155.607 Y45.01 E45.63641
G1 X155.776 Y45.236 E45.64392
G1 X155.876 Y45.5 E45.65143
G1 X155.9 Y45.717 E45.65724
G1 X155.9 Y57.168 E45.96193
G1 X155.86 Y57.447 E45.96943
G1 X155.746 Y57.709 E45.97703
G1 X155.584 Y57.94 E45.98454
G1 X155.444 Y58.063 E45.9895
G1 X144.9 Y65.731 E46.3364
G1 X144.9 Y89.283 E46.96307
G1 X144.86 Y89.562 E46.97057
G1 X144.744 Y89.819 E46.97808
G1 X144.49 Y90.107 E46.98829
G1 X144.264 Y90.276 E46.9958
G1 X144 Y90.376 E47.00331
G1 X143.783 Y90.4 E47.00912
G1 X112.541 Y90.4 E47.84041
G1 X112.15 Y90.32 E47.85103
G1 X112.077 Y90.289 E47.85314
G1 X111.757 Y90.072 E47.86343
G1 X93.28 Y71.4 E48.56239
G1 X83.049 Y71.4 E48.83462
G1 X82.77 Y71.36 E48.84212
G1 X82.459 Y71.207 E48.85134
G1 X82.355 Y71.131 E48.85477
G1 X82.153 Y70.934 E48.86227
G1 X81.996 Y70.64 E48.87114
G1 X79.156 Y62.117 E49.11018
G1 X79.1 Y61.769 E49.11956
G1 X79.1 Y45.717 E49.54667
G1 X79.14 Y45.438 E49.55417
G1 X79.256 Y45.181 E49.56168
G0 F6000 X79.54 Y45.502
G1 F1200 X79.793 Y45.176 E49.57266
G1 X79.972 Y45.052 E49.57845
G1 X80.217 Y45 E49.58512
G1 X154.783 Y45 E51.56918
G1 X154.998 Y45.04 E51.57499
G1 X155.324 Y45.293 E51.58597
G1 X155.448 Y45.472 E51.59177
G1 X155.5 Y45.717 E51.59843
G1 X155.5 Y57.168 E51.90312
G1 X155.434 Y57.441 E51.9106
G1 X155.39 Y57.527 E51.91317
G1 X155.209 Y57.739 E51.92058
G1 X144.5 Y65.527 E52.27291
G1 X144.5 Y89.283 E52.90501
G1 X144.46 Y89.498 E52.91083
G1 X144.207 Y89.824 E52.92181
G1 X144.028 Y89.948 E52.92761
G1 X143.783 Y90 E52.93427
G1 X112.541 Y90 E53.76556
G1 X112.233 Y89.921 E53.77402
G1 X112.042 Y89.791 E53.78017
G1 X93.447 Y71 E54.48359
G1 X83.049 Y71 E54.76026
G1 X82.834 Y70.96 E54.76608
G1 X82.591 Y70.808 E54.77371
G1 X82.441 Y70.65 E54.7795
G1 X82.376 Y70.514 E54.78351
G1 X79.536 Y61.991 E55.02255
G1 X79.5 Y61.769 E55.02854
G1 X79.5 Y45.717 E55.45565
G1 X79.54 Y45.502 E55.46147
G0 F6000 X79.959 Y45.576
G1 F1200 X80.076 Y45.459 E55.46587
G1 X80.217 Y45.4 E55.46994
G1 X154.783 Y45.4 E57.454
G1 X154.924 Y45.459 E57.45807
G1 X155.041 Y45.576 E57.46247
G1 X155.1 Y45.717 E57.46654
G1 X155.1 Y57.168 E57.77123
G1 X155.034 Y57.345 E57.77625
G1 X154.974 Y57.416 E57.77873
G1 X144.1 Y65.324 E58.13648
G1 X144.1 Y89.283 E58.77399
G1 X144.041 Y89.424 E58.77805
G1 X143.924 Y89.541 E58.78246
G1 X143.783 Y89.6 E58.78652
G1 X112.541 Y89.6 E59.61781
G1 X112.326 Y89.51 E59.62402
G1 X93.613 Y70.6 E60.33189
G1 X83.049 Y70.6 E60.61298
G1 X82.827 Y70.485 E60.61963
G1 X82.755 Y70.387 E60.62287
G1 X79.915 Y61.864 E60.86191
G1 X79.9 Y61.769 E60.86447
G1 X79.9 Y45.717 E61.29158
G1 X79.959 Y45.576 E61.29565
G1 F2700 E56.29565
G1 F300 Z0.36
;MESH:Back.STL
G0 F6000 X112.582 Y89.2 Z0.36
;TYPE:WALL-OUTER
