;FLAVOR:Marlin
;TIME:2556
;Filament used: 3.06267m
;Layer height: 0.16
;MINX:75.299
;MINY:91.299
;MINZ:0.192
;MAXX:159.7
;MAXY:143.7
;MAXZ:3.502
;Generated with Cura_SteamEngine 4.13.0
M140 S60
M105
M190 S60
M104 S210
M105
M109 S210
M82 ;absolute extrusion mode
; Ender 3 Custom Start G-code
G92 E0 ; Reset Extruder
G28 ; Home all axes
G1 Z2.0 F3000 ; Move Z Axis up little to prevent scratching of Heat Bed
G1 X0.1 Y20 Z0.3 F5000.0 ; Move to start position
G1 X0.1 Y200.0 Z0.3 F1500.0 E15 ; Draw the first line
G1 X0.4 Y200.0 Z0.3 F5000.0 ; Move to side a little
G1 X0.4 Y20 Z0.3 F1500.0 E30 ; Draw the second line
G92 E0 ; Reset Extruder
G1 Z2.0 F3000 ; Move Z Axis up little to prevent scratching of Heat Bed
G1 X5 Y20 Z0.3 F5000.0 ; Move over to prevent blob squish
G92 E0
G92 E0
G1 F2700 E-5
;LAYER_COUNT:15
;LAYER:-6
M107
G0 F15000 X77.304 Y92.55 Z0.192
;TYPE:SUPPORT-INTERFACE
G1 F2700 E0
G1 X77.519 Y92.383 E0.01739
G1 X77.75 Y92.227 E0.03519
G1 X78.018 Y92.069 E0.05505
G1 X78.275 Y91.939 E0.07344
G1 X78.545 Y91.823 E0.09221
G1 X78.801 Y91.731 E0.10958
G1 X79.093 Y91.647 E0.12899
G1 X79.354 Y91.591 E0.14603
G1 X79.674 Y91.543 E0.1667
G1 X80.142 Y91.507 E0.19667
G1 X80.334 Y91.5 E0.20894
G1 X154.707 Y91.5 E4.95836
G1 X154.833 Y91.504 E4.96641
G1 X155.21 Y91.528 E4.99053
G1 X155.508 Y91.565 E5.00971
G1 X155.792 Y91.62 E5.02818
G1 X156.083 Y91.696 E5.04739
G1 X156.341 Y91.78 E5.06472
G1 X156.62 Y91.891 E5.08389
G1 X156.878 Y92.013 E5.10212
G1 X157.137 Y92.157 E5.12104
G1 X157.356 Y92.296 E5.1376
G1 X157.622 Y92.494 E5.15878
G1 X157.976 Y92.798 E5.18858
G1 X158.191 Y93.009 E5.20782
G1 X158.45 Y93.304 E5.23288
G1 X158.617 Y93.519 E5.25027
G1 X158.773 Y93.75 E5.26807
G1 X158.931 Y94.018 E5.28794
G1 X159.063 Y94.277 E5.3065
G1 X159.166 Y94.516 E5.32312
G1 X159.271 Y94.808 E5.34294
G1 X159.352 Y95.09 E5.36167
G1 X159.408 Y95.344 E5.37828
G1 X159.457 Y95.674 E5.39959
G1 X159.493 Y96.135 E5.42912
G1 X159.5 Y96.32 E5.44094
G1 X159.5 Y105.255 E6.01152
G1 X159.496 Y105.381 E6.01957
G1 X159.472 Y105.758 E6.0437
G1 X159.435 Y106.056 E6.06287
G1 X159.375 Y106.37 E6.08329
G1 X159.317 Y106.599 E6.09837
G1 X159.234 Y106.868 E6.11635
G1 X159.189 Y106.989 E6.12459
G1 X159.017 Y107.383 E6.15205
G1 X158.896 Y107.618 E6.16893
G1 X158.734 Y107.89 E6.18914
G1 X158.594 Y108.097 E6.2051
G1 X158.433 Y108.31 E6.22215
G1 X158.369 Y108.391 E6.22875
G1 X150.743 Y117.543 E6.98949
G1 X150.348 Y118.084 E7.03227
G1 X150.018 Y118.681 E7.07583
G1 X149.765 Y119.316 E7.11948
G1 X149.594 Y119.984 E7.16351
G1 X149.5 Y120.971 E7.22683
G1 X149.5 Y138.707 E8.35944
G1 X149.496 Y138.833 E8.36749
G1 X149.472 Y139.21 E8.39161
G1 X149.435 Y139.508 E8.41079
G1 X149.38 Y139.792 E8.42926
G1 X149.304 Y140.083 E8.44847
G1 X149.22 Y140.341 E8.4658
G1 X149.109 Y140.62 E8.48497
G1 X148.987 Y140.878 E8.5032
G1 X148.843 Y141.137 E8.52212
G1 X148.704 Y141.356 E8.53868
G1 X148.506 Y141.622 E8.55986
G1 X148.202 Y141.976 E8.58966
G1 X147.992 Y142.19 E8.6088
G1 X147.708 Y142.44 E8.63297
G1 X147.481 Y142.617 E8.65135
G1 X147.25 Y142.773 E8.66915
G1 X146.982 Y142.931 E8.68902
G1 X146.725 Y143.061 E8.70741
G1 X146.46 Y143.175 E8.72583
G1 X146.199 Y143.269 E8.74355
G1 X145.907 Y143.353 E8.76295
G1 X145.646 Y143.409 E8.78
G1 X145.326 Y143.457 E8.80066
G1 X144.858 Y143.493 E8.83063
G1 X144.666 Y143.5 E8.8429
G1 X112.653 Y143.5 E10.88724
G1 X112.527 Y143.496 E10.89529
G1 X112.15 Y143.472 E10.91941
G1 X111.855 Y143.435 E10.9384
G1 X111.564 Y143.379 E10.95732
G1 X111.295 Y143.309 E10.97507
G1 X110.891 Y143.176 E11.00223
G1 X110.724 Y143.108 E11.01375
G1 X110.372 Y142.937 E11.03874
G1 X110.119 Y142.794 E11.0573
G1 X109.887 Y142.643 E11.07497
G1 X109.644 Y142.463 E11.09428
G1 X109.369 Y142.231 E11.11726
G1 X109.269 Y142.14 E11.12589
G1 X93.445 Y126.99 E12.52487
G1 X92.933 Y126.559 E12.56761
G1 X92.36 Y126.188 E12.6112
G1 X91.744 Y125.892 E12.65484
G1 X91.096 Y125.677 E12.69844
G1 X90.426 Y125.546 E12.74204
G1 X89.733 Y125.5 E12.78639
G1 X83.125 Y125.5 E13.20837
G1 X82.999 Y125.496 E13.21642
G1 X82.622 Y125.472 E13.24055
G1 X82.324 Y125.435 E13.25972
G1 X82.04 Y125.38 E13.2782
G1 X81.749 Y125.304 E13.2974
G1 X81.489 Y125.219 E13.31487
G1 X81.217 Y125.111 E13.33356
G1 X80.942 Y124.981 E13.35299
G1 X80.708 Y124.852 E13.37005
G1 X80.378 Y124.64 E13.3951
G1 X80.182 Y124.496 E13.41063
G1 X79.901 Y124.262 E13.43398
G1 X79.69 Y124.063 E13.4525
G1 X79.488 Y123.846 E13.47143
G1 X79.296 Y123.613 E13.49071
G1 X79.138 Y123.391 E13.50811
G1 X78.976 Y123.134 E13.52752
G1 X78.837 Y122.877 E13.54617
G1 X78.723 Y122.633 E13.56337
G1 X78.593 Y122.305 E13.5859
G1 X78.556 Y122.205 E13.59271
G1 X75.778 Y113.868 E14.15389
G1 X75.727 Y113.693 E14.16553
G1 X75.577 Y113.075 E14.20614
G1 X75.552 Y112.922 E14.21604
G1 X75.506 Y112.331 E14.25389
G1 X75.5 Y112.166 E14.26444
G1 X75.5 Y96.293 E15.27808
G1 X75.504 Y96.167 E15.28613
G1 X75.528 Y95.79 E15.31025
G1 X75.565 Y95.492 E15.32943
G1 X75.62 Y95.208 E15.3479
G1 X75.696 Y94.917 E15.36711
G1 X75.78 Y94.659 E15.38444
G1 X75.891 Y94.38 E15.40361
G1 X76.013 Y94.122 E15.42184
G1 X76.152 Y93.872 E15.4401
G1 X76.304 Y93.634 E15.45814
G1 X76.494 Y93.378 E15.47849
G1 X76.798 Y93.024 E15.50829
G1 X77.009 Y92.809 E15.52753
G1 X77.304 Y92.55 E15.5526
G0 F15000 X76.8 Y93.021
G1 F2700 X76.8 Y116.935 E17.07973
G1 F2700 E12.07973
G1 F300 Z0.392
G0 F15000 X78.4 Y121.736 Z0.392
G1 F300 Z0.192
G1 F2700 E17.07973
G1 X78.4 Y91.885 E18.986
G1 F2700 E13.986
G1 F300 Z0.392
G0 F15000 X80 Y91.517 Z0.392
G1 F300 Z0.192
G1 F2700 E18.986
G1 X80 Y124.344 E21.08232
G1 F2700 E16.08232
G1 F300 Z0.392
G0 F15000 X81.6 Y125.255 Z0.392
G1 F300 Z0.192
G1 F2700 E21.08232
G1 X81.6 Y91.5 E23.23789
G1 F2700 E18.23789
G1 F300 Z0.392
G0 F15000 X83.2 Y91.5 Z0.392
G1 F300 Z0.192
G1 F2700 E23.23789
G1 X83.2 Y125.5 E25.40911
G1 F2700 E20.40911
G1 F300 Z0.392
G0 F15000 X84.8 Y125.5 Z0.392
G1 F300 Z0.192
G1 F2700 E25.40911
G1 X84.8 Y91.5 E27.58034
G1 F2700 E22.58034
G1 F300 Z0.392
G0 F15000 X86.4 Y91.5 Z0.392
G1 F300 Z0.192
G1 F2700 E27.58034
G1 X86.4 Y125.5 E29.75156
G1 F2700 E24.75156
G1 F300 Z0.392
G0 F15000 X88 Y125.5 Z0.392
G1 F300 Z0.192
G1 F2700 E29.75156
G1 X88 Y91.5 E31.92278
G1 F2700 E26.92278
G1 F300 Z0.392
G0 F15000 X89.6 Y91.5 Z0.392
G1 F300 Z0.192
G1 F2700 E31.92278
G1 X89.6 Y125.5 E34.094
G1 F2700 E29.094
G1 F300 Z0.392
G0 F15000 X91.2 Y125.711 Z0.392
G1 F300 Z0.192
G1 F2700 E34.094
G1 X91.2 Y91.5 E36.2787
G1 F2700 E31.2787
G1 F300 Z0.392
G0 F15000 X92.8 Y91.5 Z0.392
G1 F300 Z0.192
G1 F2700 E36.2787
G1 X92.8 Y126.472 E38.51199
G1 F2700 E33.51199
G1 F300 Z0.392
G0 F15000 X94.4 Y127.904 Z0.392
G1 F300 Z0.192
G1 F2700 E38.51199
G1 X94.4 Y91.5 E40.83673
G1 F2700 E35.83673
G1 F300 Z0.392
G0 F15000 X96 Y91.5 Z0.392
G1 F300 Z0.192
G1 F2700 E40.83673
G1 X96 Y129.436 E43.2593
G1 F2700 E38.2593
G1 F300 Z0.392
G0 F15000 X97.6 Y130.968 Z0.392
G1 F300 Z0.192
G1 F2700 E43.2593
G1 X97.6 Y91.5 E45.77971
G1 F2700 E40.77971
G1 F300 Z0.392
G0 F15000 X99.2 Y91.5 Z0.392
G1 F300 Z0.192
G1 F2700 E45.77971
G1 X99.2 Y132.499 E48.39788
G1 F2700 E43.39788
G1 F300 Z0.392
G0 F15000 X100.8 Y134.031 Z0.392
G1 F300 Z0.192
G1 F2700 E48.39788
G1 X100.8 Y91.5 E51.11389
G1 F2700 E46.11389
G1 F300 Z0.392
G0 F15000 X102.4 Y91.5 Z0.392
G1 F300 Z0.192
G1 F2700 E51.11389
G1 X102.4 Y135.563 E53.92773
G1 F2700 E48.92773
G1 F300 Z0.392
G0 F15000 X104 Y137.095 Z0.392
G1 F300 Z0.192
G1 F2700 E53.92773
G1 X104 Y91.5 E56.8394
G1 F2700 E51.8394
G1 F300 Z0.392
G0 F15000 X105.6 Y91.5 Z0.392
G1 F300 Z0.192
G1 F2700 E56.8394
G1 X105.6 Y138.627 E59.8489
G1 F2700 E54.8489
G1 F300 Z0.392
G0 F15000 X107.2 Y140.159 Z0.392
G1 F300 Z0.192
G1 F2700 E59.8489
G1 X107.2 Y91.5 E62.95624
G1 F2700 E57.95624
G1 F300 Z0.392
G0 F15000 X108.8 Y91.5 Z0.392
G1 F300 Z0.192
G1 F2700 E62.95624
G1 X108.8 Y141.69 E66.16135
G1 F2700 E61.16135
G1 F300 Z0.392
G0 F15000 X110.4 Y142.95 Z0.392
G1 F300 Z0.192
G1 F2700 E66.16135
G1 X110.4 Y91.5 E69.44692
G1 F2700 E64.44692
G1 F300 Z0.392
G0 F15000 X112 Y91.5 Z0.392
G1 F300 Z0.192
G1 F2700 E69.44692
G1 X112 Y143.453 E72.76461
G1 F2700 E67.76461
G1 F300 Z0.392
G0 F15000 X113.6 Y143.5 Z0.392
G1 F300 Z0.192
G1 F2700 E72.76461
G1 X113.6 Y91.5 E76.0853
G1 F2700 E71.0853
G1 F300 Z0.392
G0 F15000 X115.2 Y91.5 Z0.392
G1 F300 Z0.192
G1 F2700 E76.0853
G1 X115.2 Y143.5 E79.40599
G1 F2700 E74.40599
G1 F300 Z0.392
G0 F15000 X116.8 Y143.5 Z0.392
G1 F300 Z0.192
G1 F2700 E79.40599
G1 X116.8 Y91.5 E82.72668
G1 F2700 E77.72668
G1 F300 Z0.392
G0 F15000 X118.4 Y91.5 Z0.392
G1 F300 Z0.192
G1 F2700 E82.72668
G1 X118.4 Y143.5 E86.04737
G1 F2700 E81.04737
G1 F300 Z0.392
G0 F15000 X120 Y143.5 Z0.392
G1 F300 Z0.192
G1 F2700 E86.04737
G1 X120 Y91.5 E89.36807
G1 F2700 E84.36807
G1 F300 Z0.392
G0 F15000 X121.6 Y91.5 Z0.392
G1 F300 Z0.192
G1 F2700 E89.36807
G1 X121.6 Y143.5 E92.68876
G1 F2700 E87.68876
G1 F300 Z0.392
G0 F15000 X123.2 Y143.5 Z0.392
G1 F300 Z0.192
G1 F2700 E92.68876
G1 X123.2 Y91.5 E96.00945
G1 F2700 E91.00945
G1 F300 Z0.392
G0 F15000 X124.8 Y91.5 Z0.392
G1 F300 Z0.192
G1 F2700 E96.00945
G1 X124.8 Y143.5 E99.33014
G1 F2700 E94.33014
G1 F300 Z0.392
G0 F15000 X126.4 Y143.5 Z0.392
G1 F300 Z0.192
G1 F2700 E99.33014
G1 X126.4 Y91.5 E102.65083
G1 F2700 E97.65083
G1 F300 Z0.392
G0 F15000 X128 Y91.5 Z0.392
G1 F300 Z0.192
G1 F2700 E102.65083
G1 X128 Y143.5 E105.97153
G1 F2700 E100.97153
G1 F300 Z0.392
G0 F15000 X129.6 Y143.5 Z0.392
G1 F300 Z0.192
G1 F2700 E105.97153
G1 X129.6 Y91.5 E109.29222
G1 F2700 E104.29222
G1 F300 Z0.392
G0 F15000 X131.2 Y91.5 Z0.392
G1 F300 Z0.192
G1 F2700 E109.29222
G1 X131.2 Y143.5 E112.61291
G1 F2700 E107.61291
G1 F300 Z0.392
G0 F15000 X132.8 Y143.5 Z0.392
G1 F300 Z0.192
G1 F2700 E112.61291
G1 X132.8 Y91.5 E115.9336
G1 F2700 E110.9336
G1 F300 Z0.392
G0 F15000 X134.4 Y91.5 Z0.392
G1 F300 Z0.192
G1 F2700 E115.9336
G1 X134.4 Y143.5 E119.25429
G1 F2700 E114.25429
G1 F300 Z0.392
G0 F15000 X136 Y143.5 Z0.392
G1 F300 Z0.192
G1 F2700 E119.25429
G1 X136 Y91.5 E122.57499
G1 F2700 E117.57499
G1 F300 Z0.392
G0 F15000 X137.6 Y91.5 Z0.392
G1 F300 Z0.192
G1 F2700 E122.57499
G1 X137.6 Y143.5 E125.89568
G1 F2700 E120.89568
G1 F300 Z0.392
G0 F15000 X139.2 Y143.5 Z0.392
G1 F300 Z0.192
G1 F2700 E125.89568
G1 X139.2 Y91.5 E129.21637
G1 F2700 E124.21637
G1 F300 Z0.392
G0 F15000 X140.8 Y91.5 Z0.392
G1 F300 Z0.192
G1 F2700 E129.21637
G1 X140.8 Y143.5 E132.53706
G1 F2700 E127.53706
G1 F300 Z0.392
G0 F15000 X142.4 Y143.5 Z0.392
G1 F300 Z0.192
G1 F2700 E132.53706
G1 X142.4 Y91.5 E135.85775
G1 F2700 E130.85775
G1 F300 Z0.392
G0 F15000 X144 Y91.5 Z0.392
G1 F300 Z0.192
G1 F2700 E135.85775
G1 X144 Y143.5 E139.17844
G1 F2700 E134.17844
G1 F300 Z0.392
G0 F15000 X145.6 Y143.416 Z0.392
G1 F300 Z0.192
G1 F2700 E139.17844
G1 X145.6 Y91.5 E142.49377
G1 F2700 E137.49377
G1 F300 Z0.392
G0 F15000 X147.2 Y91.5 Z0.392
G1 F300 Z0.192
G1 F2700 E142.49377
G1 X147.2 Y142.803 E145.76995
G1 F2700 E140.76995
G1 F300 Z0.392
G0 F15000 X148.8 Y141.205 Z0.392
G1 F300 Z0.192
G1 F2700 E145.76995
G1 X148.8 Y91.5 E148.94409
G1 F2700 E143.94409
G1 F300 Z0.392
G0 F15000 X150.4 Y91.5 Z0.392
G1 F300 Z0.192
G1 F2700 E148.94409
G1 X150.4 Y118.013 E150.63719
G1 F2700 E145.63719
G1 F300 Z0.392
G0 F15000 X152 Y116.035 Z0.392
G1 F300 Z0.192
G1 F2700 E150.63719
G1 X152 Y91.5 E152.20399
G1 F2700 E147.20399
G1 F300 Z0.392
G0 F15000 X153.6 Y91.5 Z0.392
G1 F300 Z0.192
G1 F2700 E152.20399
G1 X153.6 Y114.115 E153.64817
G1 F2700 E148.64817
G1 F300 Z0.392
G0 F15000 X155.2 Y112.195 Z0.392
G1 F300 Z0.192
G1 F2700 E153.64817
G1 X155.2 Y91.528 E154.96795
G1 F2700 E149.96795
G1 F300 Z0.392
G0 F15000 X156.8 Y91.977 Z0.392
G1 F300 Z0.192
G1 F2700 E154.96795
G1 X156.8 Y110.274 E156.13639
G1 F2700 E151.13639
G1 F300 Z0.392
G0 F15000 X158.4 Y108.352 Z0.392
G1 F300 Z0.192
G1 F2700 E156.13639
G1 X158.4 Y93.248 E157.10092
G0 F300 X158.4 Y93.248 Z0.432
G0 F15000 X158.616 Y93.519
;TIME_ELAPSED:84.077594
;LAYER:-5
;TYPE:SUPPORT
G1 F2700 X158.449 Y93.303 E157.12272
G1 X158.19 Y93.009 E157.15399
G1 X158.103 Y92.915 E157.16422
G1 X157.974 Y92.797 E157.17817
G1 X157.621 Y92.493 E157.21536
G1 X157.355 Y92.295 E157.24183
G1 X157.34 Y92.286 E157.24322
G1 X158.707 Y93.654 E157.3976
G1 X158.772 Y93.749 E157.40679
G1 X158.93 Y94.017 E157.43162
G1 X159.062 Y94.277 E157.4549
G1 X159.165 Y94.516 E157.47567
G1 X159.27 Y94.807 E157.50037
G1 X159.351 Y95.089 E157.52379
G1 X159.407 Y95.343 E157.54455
G1 X159.456 Y95.673 E157.57118
G1 X159.468 Y95.829 E157.58367
G1 X155.165 Y91.525 E158.06949
G1 X154.832 Y91.503 E158.09613
G1 X154.706 Y91.499 E158.10619
G1 X153.725 Y91.499 E158.1845
G1 X159.499 Y97.274 E158.83637
G1 X159.499 Y98.688 E158.94924
G1 X152.31 Y91.499 E159.7608
G1 X150.896 Y91.499 E159.87367
G1 X159.499 Y100.102 E160.84485
G1 X159.499 Y101.517 E160.9578
G1 X149.482 Y91.499 E162.08867
G1 X148.068 Y91.499 E162.20154
G1 X159.499 Y102.931 E163.49202
G1 X159.499 Y104.345 E163.6049
G1 X146.653 Y91.499 E165.05506
G1 X145.239 Y91.499 E165.16793
G1 X159.473 Y105.732 E166.77474
G1 X159.47 Y105.757 E166.77675
G1 X159.434 Y106.056 E166.80079
G1 X159.374 Y106.37 E166.8263
G1 X159.316 Y106.599 E166.84516
G1 X159.233 Y106.867 E166.86756
G1 X159.223 Y106.897 E166.87008
G1 X143.825 Y91.499 E168.60834
G1 X142.411 Y91.499 E168.72121
G1 X158.758 Y107.847 E170.56666
G1 X158.733 Y107.889 E170.57056
G1 X158.593 Y108.097 E170.59057
G1 X158.432 Y108.309 E170.61182
G1 X158.367 Y108.39 E170.62011
G1 X158.15 Y108.652 E170.64727
G1 X140.997 Y91.499 E172.58365
G1 X139.582 Y91.499 E172.6966
G1 X157.507 Y109.424 E174.72013
G1 X156.864 Y110.195 E174.80027
G1 X138.168 Y91.499 E176.91083
G1 X136.754 Y91.499 E177.02371
G1 X156.221 Y110.966 E179.22131
G1 X155.579 Y111.738 E179.30146
G1 X135.34 Y91.499 E181.58621
G1 X133.926 Y91.499 E181.69908
G1 X154.936 Y112.509 E184.07087
G1 X154.293 Y113.281 E184.15107
G1 X132.511 Y91.499 E186.61001
G1 X131.097 Y91.499 E186.72288
G1 X153.65 Y114.052 E189.26886
G1 X153.008 Y114.824 E189.34901
G1 X129.683 Y91.499 E191.98214
G1 X128.269 Y91.499 E192.09501
G1 X152.365 Y115.595 E194.81517
G1 X151.722 Y116.367 E194.89537
G1 X126.854 Y91.499 E197.70269
G1 X125.44 Y91.499 E197.81556
G1 X151.079 Y117.138 E200.70991
G1 X150.741 Y117.543 E200.75202
G1 X150.458 Y117.931 E200.79036
G1 X124.026 Y91.499 E203.77423
G1 X122.612 Y91.499 E203.8871
G1 X149.953 Y118.84 E206.97359
G1 X149.763 Y119.315 E207.01443
G1 X149.611 Y119.913 E207.06368
G1 X121.198 Y91.499 E210.27124
G1 X119.783 Y91.499 E210.38419
G1 X149.499 Y121.215 E213.73879
G1 X149.499 Y122.629 E213.85166
G1 X118.369 Y91.499 E217.36589
G1 X116.955 Y91.499 E217.47876
G1 X149.499 Y124.043 E221.1526
G1 X149.499 Y125.457 E221.26548
G1 X115.541 Y91.499 E225.09895
G1 X114.127 Y91.499 E225.21182
G1 X149.499 Y126.871 E229.20492
G1 X149.499 Y128.286 E229.31787
G1 X112.712 Y91.499 E233.4707
G1 X111.298 Y91.499 E233.58358
G1 X149.499 Y129.7 E237.89603
G1 X149.499 Y131.114 E238.00891
G1 X109.884 Y91.499 E242.48099
G1 X108.47 Y91.499 E242.59386
G1 X149.499 Y132.528 E247.22557
G1 X149.499 Y133.942 E247.33844
G1 X107.055 Y91.499 E252.12983
G1 X105.641 Y91.499 E252.2427
G1 X149.499 Y135.357 E257.19377
G1 X149.499 Y136.771 E257.30664
G1 X104.227 Y91.499 E262.41734
G1 X102.813 Y91.499 E262.53021
G1 X149.499 Y138.185 E267.80053
G1 X149.499 Y138.707 E267.8422
G1 X149.495 Y138.833 E267.85226
G1 X149.471 Y139.209 E267.88233
G1 X149.434 Y139.507 E267.9063
G1 X149.43 Y139.53 E267.90817
G1 X101.399 Y91.499 E273.33032
G1 X99.984 Y91.499 E273.44327
G1 X149.107 Y140.622 E278.9887
G1 X148.985 Y140.878 E279.01134
G1 X148.841 Y141.137 E279.03499
G1 X148.703 Y141.356 E279.05566
G1 X148.585 Y141.514 E279.0714
G1 X98.57 Y91.499 E284.71752
G1 X97.156 Y91.499 E284.8304
G1 X147.914 Y142.257 E290.5604
G1 X147.707 Y142.439 E290.5824
G1 X147.48 Y142.617 E290.60543
G1 X147.249 Y142.773 E290.62768
G1 X147.102 Y142.859 E290.64127
G1 X95.742 Y91.499 E296.43923
G1 X94.328 Y91.499 E296.5521
G1 X146.119 Y143.29 E302.39872
G1 X145.905 Y143.353 E302.41653
G1 X145.644 Y143.409 E302.43784
G1 X145.325 Y143.457 E302.46359
G1 X144.903 Y143.488 E302.49736
G1 X92.913 Y91.499 E308.36639
G1 X91.499 Y91.499 E308.47926
G1 X143.499 Y143.499 E314.34947
G1 X142.085 Y143.499 E314.46234
G1 X90.085 Y91.499 E320.33255
