;FLAVOR:Marlin
;TIME:18607
;Filament used: 24.4541m
;Layer height: 0.16
;MINX:75.299
;MINY:51.311
;MINZ:0.192
;MAXX:159.7
;MAXY:103.712
;MAXZ:108.462
;Generated with Cura_SteamEngine 4.13.0
M140 S60
M105
M190 S60
M104 S210
M105
M109 S210
M82 ;absolute extrusion mode
; Ender 3 Custom Start G-code
G92 E0 ; Reset Extruder
G28 ; Home all axes
G1 Z2.0 F3000 ; Move Z Axis up little to prevent scratching of Heat Bed
G1 X0.1 Y20 Z0.3 F5000.0 ; Move to start position
G1 X0.1 Y200.0 Z0.3 F1500.0 E15 ; Draw the first line
G1 X0.4 Y200.0 Z0.3 F5000.0 ; Move to side a little
G1 X0.4 Y20 Z0.3 F1500.0 E30 ; Draw the second line
G92 E0 ; Reset Extruder
G1 Z2.0 F3000 ; Move Z Axis up little to prevent scratching of Heat Bed
G1 X5 Y20 Z0.3 F5000.0 ; Move over to prevent blob squish
G92 E0
G92 E0
G1 F2700 E-5
;LAYER_COUNT:671
;LAYER:-6
M107
G0 F15000 X76.304 Y53.647 Z0.192
;TYPE:SUPPORT-INTERFACE
G1 F2700 E0
G1 X76.494 Y53.391 E0.02036
G1 X76.798 Y53.037 E0.05016
G1 X77.009 Y52.822 E0.06939
G1 X77.304 Y52.563 E0.09446
G1 X77.519 Y52.396 E0.11185
G1 X77.75 Y52.24 E0.12965
G1 X78.018 Y52.082 E0.14952
G1 X78.275 Y51.952 E0.16791
G1 X78.545 Y51.836 E0.18667
G1 X78.801 Y51.744 E0.20404
G1 X79.093 Y51.66 E0.22345
G1 X79.354 Y51.604 E0.24049
G1 X79.674 Y51.556 E0.26116
G1 X80.142 Y51.52 E0.29113
G1 X80.334 Y51.513 E0.3034
G1 X154.707 Y51.512 E5.05282
G1 X154.833 Y51.516 E5.06087
G1 X155.21 Y51.54 E5.085
G1 X155.508 Y51.577 E5.10417
G1 X155.792 Y51.632 E5.12264
G1 X156.083 Y51.708 E5.14185
G1 X156.341 Y51.792 E5.15918
G1 X156.62 Y51.903 E5.17835
G1 X156.878 Y52.025 E5.19658
G1 X157.137 Y52.169 E5.2155
G1 X157.356 Y52.308 E5.23207
G1 X157.622 Y52.506 E5.25324
G1 X157.976 Y52.81 E5.28304
G1 X158.191 Y53.021 E5.30228
G1 X158.45 Y53.316 E5.32735
G1 X158.617 Y53.531 E5.34473
G1 X158.773 Y53.762 E5.36253
G1 X158.931 Y54.03 E5.3824
G1 X159.063 Y54.289 E5.40096
G1 X159.166 Y54.528 E5.41758
G1 X159.271 Y54.821 E5.43746
G1 X159.353 Y55.105 E5.45634
G1 X159.409 Y55.365 E5.47332
G1 X159.457 Y55.686 E5.49405
G1 X159.493 Y56.147 E5.52358
G1 X159.5 Y56.332 E5.5354
G1 X159.5 Y72.179 E6.54738
G1 X159.494 Y72.344 E6.55792
G1 X159.448 Y72.935 E6.59578
G1 X159.423 Y73.088 E6.60568
G1 X159.273 Y73.706 E6.64629
G1 X159.222 Y73.881 E6.65793
G1 X156.448 Y82.204 E7.21817
G1 X156.396 Y82.344 E7.22771
G1 X156.255 Y82.694 E7.25181
G1 X156.133 Y82.948 E7.2698
G1 X155.987 Y83.211 E7.28901
G1 X155.823 Y83.461 E7.30811
G1 X155.652 Y83.692 E7.32646
G1 X155.48 Y83.896 E7.3435
G1 X155.247 Y84.139 E7.365
G1 X155.067 Y84.306 E7.38068
G1 X154.823 Y84.505 E7.40078
G1 X154.6 Y84.668 E7.41842
G1 X154.301 Y84.859 E7.44108
G1 X154.047 Y84.999 E7.4596
G1 X153.788 Y85.122 E7.47791
G1 X153.493 Y85.239 E7.49818
G1 X153.24 Y85.321 E7.51516
G1 X152.955 Y85.394 E7.53395
G1 X152.662 Y85.45 E7.553
G1 X152.378 Y85.486 E7.57128
G1 X152.009 Y85.509 E7.59489
G1 X151.873 Y85.513 E7.60358
G1 X145.267 Y85.513 E8.02543
G1 X144.599 Y85.555 E8.06818
G1 X143.928 Y85.684 E8.11181
G1 X143.279 Y85.897 E8.15543
G1 X142.662 Y86.189 E8.19902
G1 X142.087 Y86.557 E8.24262
G1 X141.555 Y87.003 E8.28695
G1 X125.726 Y102.158 E9.68638
G1 X125.642 Y102.234 E9.69361
G1 X125.344 Y102.485 E9.71849
G1 X125.1 Y102.665 E9.73785
G1 X124.868 Y102.815 E9.7555
G1 X124.606 Y102.962 E9.77468
G1 X124.284 Y103.118 E9.79753
G1 X124.093 Y103.195 E9.81068
G1 X123.75 Y103.309 E9.83376
G1 X123.475 Y103.383 E9.85195
G1 X123.206 Y103.437 E9.86947
G1 X122.876 Y103.482 E9.89074
G1 X122.481 Y103.508 E9.91602
G1 X122.335 Y103.513 E9.92535
G1 X90.293 Y103.512 E11.97153
G1 X90.167 Y103.508 E11.97958
G1 X89.79 Y103.484 E12.00371
G1 X89.495 Y103.447 E12.02269
G1 X89.197 Y103.389 E12.04208
G1 X88.925 Y103.319 E12.06001
G1 X88.659 Y103.232 E12.07789
G1 X88.376 Y103.119 E12.09735
G1 X88.128 Y103.001 E12.11489
G1 X87.846 Y102.845 E12.13547
G1 X87.646 Y102.716 E12.15066
G1 X87.377 Y102.517 E12.17203
G1 X86.997 Y102.192 E12.20396
G1 X86.801 Y101.994 E12.22175
G1 X86.55 Y101.708 E12.24605
G1 X86.383 Y101.493 E12.26344
G1 X86.226 Y101.26 E12.28138
G1 X86.069 Y100.994 E12.30111
G1 X85.939 Y100.737 E12.3195
G1 X85.823 Y100.467 E12.33826
G1 X85.731 Y100.211 E12.35564
G1 X85.647 Y99.919 E12.37504
G1 X85.591 Y99.658 E12.39209
G1 X85.543 Y99.338 E12.41275
G1 X85.506 Y98.86 E12.44336
G1 X85.5 Y98.692 E12.4541
G1 X85.5 Y80.989 E13.5846
G1 X85.458 Y80.321 E13.62735
G1 X85.329 Y79.65 E13.67098
G1 X85.116 Y79.001 E13.7146
G1 X84.821 Y78.378 E13.75862
G1 X84.26 Y77.559 E13.82201
G1 X76.65 Y68.427 E14.58112
G1 X76.555 Y68.306 E14.59095
G1 X76.324 Y67.99 E14.61594
G1 X76.182 Y67.766 E14.63288
G1 X76.028 Y67.487 E14.65323
G1 X75.913 Y67.251 E14.67
G1 X75.798 Y66.971 E14.68933
G1 X75.76 Y66.855 E14.69712
G1 X75.65 Y66.48 E14.72208
G1 X75.593 Y66.225 E14.73876
G1 X75.541 Y65.901 E14.75972
G1 X75.515 Y65.648 E14.77596
G1 X75.502 Y65.384 E14.79284
G1 X75.5 Y65.299 E14.79827
G1 X75.5 Y56.306 E15.37256
G1 X75.504 Y56.18 E15.38061
G1 X75.528 Y55.803 E15.40473
G1 X75.565 Y55.508 E15.42372
G1 X75.622 Y55.21 E15.44309
G1 X75.696 Y54.93 E15.46159
G1 X75.78 Y54.672 E15.47892
G1 X75.891 Y54.393 E15.49809
G1 X76.013 Y54.135 E15.51632
G1 X76.152 Y53.885 E15.53458
G1 X76.304 Y53.647 E15.55262
G0 F15000 X76.8 Y53.034
G1 F2700 X76.8 Y68.607 E16.5471
G1 F2700 E11.5471
G1 F300 Z0.392
G0 F15000 X78.4 Y70.527 Z0.392
G1 F300 Z0.192
G1 F2700 E16.5471
G1 X78.4 Y51.898 E17.73674
G1 F2700 E12.73674
G1 F300 Z0.392
G0 F15000 X80 Y51.53 Z0.392
G1 F300 Z0.192
G1 F2700 E17.73674
G1 X80 Y72.447 E19.07248
G1 F2700 E14.07248
G1 F300 Z0.392
G0 F15000 X81.6 Y74.367 Z0.392
G1 F300 Z0.192
G1 F2700 E19.07248
G1 X81.6 Y51.512 E20.53199
G1 F2700 E15.53199
G1 F300 Z0.392
G0 F15000 X83.2 Y51.512 Z0.392
G1 F300 Z0.192
G1 F2700 E20.53199
G1 X83.2 Y76.287 E22.11411
G1 F2700 E17.11411
G1 F300 Z0.392
G0 F15000 X84.8 Y78.347 Z0.392
G1 F300 Z0.192
G1 F2700 E22.11411
G1 X84.8 Y51.512 E23.82778
G1 F2700 E18.82778
G1 F300 Z0.392
G0 F15000 X86.4 Y51.512 Z0.392
G1 F300 Z0.192
G1 F2700 E23.82778
G1 X86.4 Y101.514 E27.02088
G1 F2700 E22.02088
G1 F300 Z0.392
G0 F15000 X88 Y102.93 Z0.392
G1 F300 Z0.192
G1 F2700 E27.02088
G1 X88 Y51.512 E30.30441
G1 F2700 E25.30441
G1 F300 Z0.392
G0 F15000 X89.6 Y51.512 Z0.392
G1 F300 Z0.192
G1 F2700 E30.30441
G1 X89.6 Y103.46 E33.62178
G1 F2700 E28.62178
G1 F300 Z0.392
G0 F15000 X91.2 Y103.512 Z0.392
G1 F300 Z0.192
G1 F2700 E33.62178
G1 X91.2 Y51.512 E36.94247
G1 F2700 E31.94247
G1 F300 Z0.392
G0 F15000 X92.8 Y51.512 Z0.392
G1 F300 Z0.192
G1 F2700 E36.94247
G1 X92.8 Y103.512 E40.26316
G1 F2700 E35.26316
G1 F300 Z0.392
G0 F15000 X94.4 Y103.512 Z0.392
G1 F300 Z0.192
G1 F2700 E40.26316
G1 X94.4 Y51.512 E43.58385
G1 F2700 E38.58385
G1 F300 Z0.392
G0 F15000 X96 Y51.512 Z0.392
G1 F300 Z0.192
G1 F2700 E43.58385
G1 X96 Y103.512 E46.90454
G1 F2700 E41.90454
G1 F300 Z0.392
G0 F15000 X97.6 Y103.512 Z0.392
G1 F300 Z0.192
G1 F2700 E46.90454
G1 X97.6 Y51.512 E50.22524
G1 F2700 E45.22524
G1 F300 Z0.392
G0 F15000 X99.2 Y51.512 Z0.392
G1 F300 Z0.192
G1 F2700 E50.22524
G1 X99.2 Y103.512 E53.54593
G1 F2700 E48.54593
G1 F300 Z0.392
G0 F15000 X100.8 Y103.512 Z0.392
G1 F300 Z0.192
G1 F2700 E53.54593
G1 X100.8 Y51.512 E56.86662
G1 F2700 E51.86662
G1 F300 Z0.392
G0 F15000 X102.4 Y51.512 Z0.392
G1 F300 Z0.192
G1 F2700 E56.86662
G1 X102.4 Y103.512 E60.18731
G1 F2700 E55.18731
G1 F300 Z0.392
G0 F15000 X104 Y103.512 Z0.392
G1 F300 Z0.192
G1 F2700 E60.18731
G1 X104 Y51.512 E63.508
G1 F2700 E58.508
G1 F300 Z0.392
G0 F15000 X105.6 Y51.512 Z0.392
G1 F300 Z0.192
G1 F2700 E63.508
G1 X105.6 Y103.512 E66.8287
G1 F2700 E61.8287
G1 F300 Z0.392
G0 F15000 X107.2 Y103.512 Z0.392
G1 F300 Z0.192
G1 F2700 E66.8287
G1 X107.2 Y51.512 E70.14939
G1 F2700 E65.14939
G1 F300 Z0.392
G0 F15000 X108.8 Y51.512 Z0.392
G1 F300 Z0.192
G1 F2700 E70.14939
G1 X108.8 Y103.512 E73.47008
G1 F2700 E68.47008
G1 F300 Z0.392
G0 F15000 X110.4 Y103.512 Z0.392
G1 F300 Z0.192
G1 F2700 E73.47008
G1 X110.4 Y51.512 E76.79077
G1 F2700 E71.79077
G1 F300 Z0.392
G0 F15000 X112 Y51.512 Z0.392
G1 F300 Z0.192
G1 F2700 E76.79077
G1 X112 Y103.512 E80.11146
G1 F2700 E75.11146
G1 F300 Z0.392
G0 F15000 X113.6 Y103.512 Z0.392
G1 F300 Z0.192
G1 F2700 E80.11146
G1 X113.6 Y51.512 E83.43216
G1 F2700 E78.43216
G1 F300 Z0.392
G0 F15000 X115.2 Y51.512 Z0.392
G1 F300 Z0.192
G1 F2700 E83.43216
G1 X115.2 Y103.512 E86.75285
G1 F2700 E81.75285
G1 F300 Z0.392
G0 F15000 X116.8 Y103.512 Z0.392
G1 F300 Z0.192
G1 F2700 E86.75285
G1 X116.8 Y51.512 E90.07354
G1 F2700 E85.07354
G1 F300 Z0.392
G0 F15000 X118.4 Y51.512 Z0.392
G1 F300 Z0.192
G1 F2700 E90.07354
G1 X118.4 Y103.512 E93.39423
G1 F2700 E88.39423
G1 F300 Z0.392
G0 F15000 X120 Y103.512 Z0.392
G1 F300 Z0.192
G1 F2700 E93.39423
G1 X120 Y51.512 E96.71492
G1 F2700 E91.71492
G1 F300 Z0.392
G0 F15000 X121.6 Y51.512 Z0.392
G1 F300 Z0.192
G1 F2700 E96.71492
G1 X121.6 Y103.512 E100.03561
G1 F2700 E95.03561
G1 F300 Z0.392
G0 F15000 X123.2 Y103.438 Z0.392
G1 F300 Z0.192
G1 F2700 E100.03561
G1 X123.2 Y51.512 E103.35158
G1 F2700 E98.35158
G1 F300 Z0.392
G0 F15000 X124.8 Y51.512 Z0.392
G1 F300 Z0.192
G1 F2700 E103.35158
G1 X124.8 Y102.854 E106.63025
G1 F2700 E101.63025
G1 F300 Z0.392
G0 F15000 X126.4 Y101.513 Z0.392
G1 F300 Z0.192
G1 F2700 E106.63025
G1 X126.4 Y51.512 E109.82329
G1 F2700 E104.82329
G1 F300 Z0.392
G0 F15000 X128 Y51.512 Z0.392
G1 F300 Z0.192
G1 F2700 E109.82329
G1 X128 Y99.981 E112.91849
G1 F2700 E107.91849
G1 F300 Z0.392
G0 F15000 X129.6 Y98.449 Z0.392
G1 F300 Z0.192
G1 F2700 E112.91849
G1 X129.6 Y51.512 E115.91587
G1 F2700 E110.91587
G1 F300 Z0.392
G0 F15000 X131.2 Y51.512 Z0.392
G1 F300 Z0.192
G1 F2700 E115.91587
G1 X131.2 Y96.918 E118.81547
G1 F2700 E113.81547
G1 F300 Z0.392
G0 F15000 X132.8 Y95.386 Z0.392
G1 F300 Z0.192
G1 F2700 E118.81547
G1 X132.8 Y51.512 E121.61724
G1 F2700 E116.61724
G1 F300 Z0.392
G0 F15000 X134.4 Y51.512 Z0.392
G1 F300 Z0.192
G1 F2700 E121.61724
G1 X134.4 Y93.854 E124.32118
G1 F2700 E119.32118
G1 F300 Z0.392
G0 F15000 X136 Y92.322 Z0.392
G1 F300 Z0.192
G1 F2700 E124.32118
G1 X136 Y51.512 E126.92728
G1 F2700 E121.92728
G1 F300 Z0.392
G0 F15000 X137.6 Y51.512 Z0.392
G1 F300 Z0.192
G1 F2700 E126.92728
G1 X137.6 Y90.79 E129.43555
G1 F2700 E124.43555
G1 F300 Z0.392
G0 F15000 X139.2 Y89.258 Z0.392
G1 F300 Z0.192
G1 F2700 E129.43555
G1 X139.2 Y51.512 E131.84599
G1 F2700 E126.84599
G1 F300 Z0.392
G0 F15000 X140.8 Y51.512 Z0.392
G1 F300 Z0.192
G1 F2700 E131.84599
G1 X140.8 Y87.726 E134.1586
G1 F2700 E129.1586
G1 F300 Z0.392
G0 F15000 X142.4 Y86.357 Z0.392
G1 F300 Z0.192
G1 F2700 E134.1586
G1 X142.4 Y51.512 E136.38378
G1 F2700 E131.38378
G1 F300 Z0.392
G0 F15000 X144 Y51.512 Z0.392
G1 F300 Z0.192
G1 F2700 E136.38378
G1 X144 Y85.671 E138.56516
G1 F2700 E133.56516
G1 F300 Z0.392
G0 F15000 X145.6 Y85.513 Z0.392
G1 F300 Z0.192
G1 F2700 E138.56516
G1 X145.6 Y51.512 E140.73644
G1 F2700 E135.73644
G1 F300 Z0.392
G0 F15000 X147.2 Y51.512 Z0.392
G1 F300 Z0.192
G1 F2700 E140.73644
G1 X147.2 Y85.513 E142.90773
G1 F2700 E137.90773
G1 F300 Z0.392
G0 F15000 X148.8 Y85.513 Z0.392
G1 F300 Z0.192
G1 F2700 E142.90773
G1 X148.8 Y51.512 E145.07901
G1 F2700 E140.07901
G1 F300 Z0.392
G0 F15000 X150.4 Y51.512 Z0.392
G1 F300 Z0.192
G1 F2700 E145.07901
G1 X150.4 Y85.513 E147.2503
G1 F2700 E142.2503
G1 F300 Z0.392
G0 F15000 X152 Y85.51 Z0.392
G1 F300 Z0.192
G1 F2700 E147.2503
G1 X152 Y51.512 E149.42139
G1 F2700 E144.42139
G1 F300 Z0.392
G0 F15000 X153.6 Y51.512 Z0.392
G1 F300 Z0.192
G1 F2700 E149.42139
G1 X153.6 Y85.197 E151.5725
G1 F2700 E146.5725
G1 F300 Z0.392
G0 F15000 X155.2 Y84.183 Z0.392
G1 F300 Z0.192
G1 F2700 E151.5725
G1 X155.2 Y51.54 E153.65706
G1 F2700 E148.65706
G1 F300 Z0.392
G0 F15000 X156.8 Y51.989 Z0.392
G1 F300 Z0.192
G1 F2700 E153.65706
G1 X156.8 Y81.148 E155.51914
G1 F2700 E150.51914
G1 F300 Z0.392
G0 F15000 X158.4 Y76.348 Z0.392
G1 F300 Z0.192
G1 F2700 E155.51914
G1 X158.4 Y53.26 E156.99353
G0 F300 X158.4 Y53.26 Z0.432
G0 F15000 X159.062 Y54.288
;TIME_ELAPSED:84.421760
;LAYER:-5
;TYPE:SUPPORT
G1 F2700 X158.93 Y54.03 E157.01666
G1 X158.771 Y53.762 E157.04154
G1 X158.616 Y53.53 E157.06381
G1 X158.449 Y53.316 E157.08548
G1 X158.19 Y53.02 E157.11687
G1 X158.103 Y52.926 E157.1271
G1 X157.975 Y52.81 E157.14088
G1 X157.621 Y52.505 E157.17818
G1 X157.355 Y52.307 E157.20465
G1 X157.136 Y52.168 E157.22536
G1 X156.877 Y52.024 E157.24901
G1 X156.619 Y51.903 E157.27176
G1 X156.512 Y51.86 E157.28097
G1 X159.154 Y54.503 E157.57928
G1 X159.165 Y54.527 E157.58138
G1 X159.27 Y54.82 E157.60623
G1 X159.352 Y55.104 E157.62982
G1 X159.408 Y55.365 E157.65113
G1 X159.456 Y55.686 E157.67704
G1 X159.492 Y56.147 E157.71395
G1 X159.497 Y56.259 E157.7229
G1 X154.751 Y51.513 E158.25867
G1 X154.705 Y51.512 E158.26234
G1 X153.336 Y51.512 E158.37162
G1 X159.499 Y57.675 E159.06736
G1 X159.499 Y59.09 E159.18031
G1 X151.921 Y51.512 E160.03578
G1 X150.507 Y51.512 E160.14865
G1 X159.499 Y60.504 E161.16374
G1 X159.499 Y61.918 E161.27661
G1 X149.093 Y51.512 E162.45133
G1 X147.679 Y51.512 E162.56421
G1 X159.499 Y63.332 E163.89855
G1 X159.499 Y64.746 E164.01142
G1 X146.265 Y51.512 E165.50539
G1 X144.85 Y51.512 E165.61834
G1 X159.499 Y66.161 E167.27205
G1 X159.499 Y67.575 E167.38492
G1 X143.436 Y51.512 E169.19825
G1 X142.022 Y51.512 E169.31112
G1 X159.499 Y68.989 E171.28407
G1 X159.499 Y70.403 E171.39695
G1 X140.608 Y51.512 E173.52953
G1 X139.193 Y51.512 E173.64248
G1 X159.499 Y71.818 E175.93479
G1 X159.499 Y72.178 E175.96353
G1 X159.493 Y72.344 E175.97679
G1 X159.446 Y72.935 E176.02412
G1 X159.439 Y73.005 E176.02973
G1 X159.422 Y73.087 E176.03642
G1 X159.41 Y73.143 E176.04099
G1 X137.779 Y51.512 E178.48288
G1 X136.365 Y51.512 E178.59575
G1 X159.099 Y74.246 E181.16216
G1 X158.746 Y75.307 E181.25142
G1 X134.951 Y51.512 E183.93761
G1 X133.537 Y51.512 E184.05048
G1 X158.392 Y76.368 E186.85638
G1 X158.039 Y77.428 E186.94556
G1 X132.122 Y51.512 E189.87124
G1 X130.708 Y51.512 E189.98411
G1 X157.685 Y78.489 E193.02951
G1 X157.331 Y79.55 E193.11879
G1 X129.294 Y51.512 E196.28391
G1 X127.88 Y51.512 E196.39678
G1 X156.978 Y80.61 E199.68161
G1 X156.624 Y81.671 E199.7709
G1 X126.466 Y51.512 E203.17545
G1 X125.051 Y51.512 E203.2884
G1 X156.247 Y82.708 E206.81008
G1 X156.132 Y82.947 E206.83125
G1 X155.986 Y83.21 E206.85526
G1 X155.822 Y83.461 E206.87919
G1 X155.721 Y83.596 E206.89265
G1 X123.637 Y51.512 E210.51457
G1 X122.223 Y51.512 E210.62744
G1 X155.038 Y84.328 E214.33194
G1 X154.822 Y84.504 E214.35418
G1 X154.712 Y84.589 E214.36528
G1 X154.599 Y84.668 E214.37628
G1 X154.299 Y84.859 E214.40467
G1 X154.206 Y84.91 E214.41314
G1 X120.809 Y51.512 E218.18334
G1 X119.394 Y51.512 E218.29629
G1 X153.21 Y85.328 E222.11373
G1 X152.954 Y85.394 E222.13483
G1 X152.661 Y85.449 E222.15863
G1 X152.377 Y85.486 E222.18149
G1 X152.008 Y85.509 E222.211
G1 X151.977 Y85.509 E222.21348
G1 X117.98 Y51.512 E226.05135
G1 X116.566 Y51.512 E226.16423
G1 X150.567 Y85.513 E230.00255
G1 X149.152 Y85.513 E230.1155
G1 X115.152 Y51.512 E233.95377
G1 X113.738 Y51.512 E234.06665
G1 X147.738 Y85.513 E237.90492
G1 X146.324 Y85.513 E238.01779
G1 X112.323 Y51.512 E241.85611
G1 X110.909 Y51.512 E241.96899
G1 X144.93 Y85.533 E245.80957
G1 X144.598 Y85.554 E245.83613
G1 X143.927 Y85.684 E245.89068
G1 X143.73 Y85.748 E245.90722
G1 X109.495 Y51.512 E249.77202
G1 X108.081 Y51.512 E249.88489
G1 X142.726 Y86.158 E253.79597
G1 X142.661 Y86.189 E253.80172
G1 X142.086 Y86.556 E253.85617
G1 X141.881 Y86.727 E253.87748
G1 X106.667 Y51.512 E257.8528
G1 X105.252 Y51.512 E257.96575
G1 X141.139 Y87.399 E262.01698
G1 X140.416 Y88.09 E262.09682
G1 X103.838 Y51.512 E266.22606
G1 X102.424 Y51.512 E266.33893
G1 X139.694 Y88.782 E270.54629
G1 X138.971 Y89.474 E270.62618
G1 X101.01 Y51.512 E274.9116
G1 X99.595 Y51.512 E275.02455
G1 X138.249 Y90.166 E279.38815
G1 X137.526 Y90.857 E279.46798
G1 X98.181 Y51.512 E283.90958
G1 X96.767 Y51.512 E284.02246
G1 X136.804 Y91.549 E288.54218
G1 X136.081 Y92.241 E288.62207
G1 X95.353 Y51.512 E293.21985
G1 X93.939 Y51.512 E293.33272
G1 X135.359 Y92.932 E298.00857
G1 X134.636 Y93.624 E298.08846
G1 X92.524 Y51.512 E302.84243
G1 X91.11 Y51.512 E302.9553
G1 X133.914 Y94.316 E307.78738
G1 X133.192 Y95.008 E307.86721
G1 X89.696 Y51.512 E312.77742
G1 X88.282 Y51.512 E312.89029
