;FLAVOR:Marlin
;TIME:9269
;Filament used: 11.4676m
;Layer height: 0.16
;MINX:76.3
;MINY:41.8
;MINZ:0.16
;MAXX:158.7
;MAXY:93.2
;MAXZ:47.88
;Generated with Cura_SteamEngine 4.13.0
M140 S60
M105
M190 S60
M104 S210
M105
M109 S210
M82 ;absolute extrusion mode
; Ender 3 Custom Start G-code
G92 E0 ; Reset Extruder
G28 ; Home all axes
G1 Z2.0 F3000 ; Move Z Axis up little to prevent scratching of Heat Bed
G1 X0.1 Y20 Z0.3 F5000.0 ; Move to start position
G1 X0.1 Y200.0 Z0.3 F1500.0 E15 ; Draw the first line
G1 X0.4 Y200.0 Z0.3 F5000.0 ; Move to side a little
G1 X0.4 Y20 Z0.3 F1500.0 E30 ; Draw the second line
G92 E0 ; Reset Extruder
G1 Z2.0 F3000 ; Move Z Axis up little to prevent scratching of Heat Bed
G1 X5 Y20 Z0.3 F5000.0 ; Move over to prevent blob squish
G92 E0
G92 E0
G1 F2700 E-5
;LAYER_COUNT:298
;LAYER:0
M107
G1 F300 Z0.36
G0 F6000 X79.835 Y62.493 Z0.36
;TYPE:SKIRT
G1 F300 Z0.16
G1 F2700 E0
G1 F1200 X80.183 Y62.066 E0.01466
G1 X80.703 Y61.608 E0.03309
G1 X80.807 Y61.532 E0.03652
G1 X81.274 Y61.24 E0.05118
G1 X81.779 Y61.019 E0.06584
G1 X82.31 Y60.873 E0.0805
G1 X83.049 Y60.8 E0.10026
G1 X92.111 Y60.8 E0.34138
G1 X109.767 Y42.958 E1.00928
G1 X110.182 Y42.596 E1.02393
G1 X110.645 Y42.297 E1.03859
G1 X110.983 Y42.133 E1.04859
G1 X111.056 Y42.102 E1.0507
G1 X111.577 Y41.924 E1.06535
G1 X112.119 Y41.824 E1.08002
G1 X112.541 Y41.8 E1.09126
G1 X143.783 Y41.8 E1.92255
G1 X144.333 Y41.84 E1.93723
G1 X144.871 Y41.959 E1.95189
G1 X145.386 Y42.155 E1.96655
G1 X145.867 Y42.423 E1.9812
G1 X146.47 Y42.913 E2.00187
G1 X146.587 Y43.03 E2.00628
G1 X146.947 Y43.447 E2.02093
G1 X147.244 Y43.911 E2.03559
G1 X147.47 Y44.414 E2.05027
G1 X147.621 Y44.944 E2.06493
G1 X147.7 Y45.717 E2.08561
G1 X147.7 Y67.843 E2.67434
G1 X157.091 Y74.673 E2.98331
G1 X157.512 Y75.028 E2.99796
G1 X157.877 Y75.441 E3.01263
G1 X158.239 Y76.015 E3.03069
G1 X158.283 Y76.101 E3.03326
G1 X158.498 Y76.609 E3.04793
G1 X158.637 Y77.142 E3.06259
G1 X158.7 Y77.832 E3.08103
G1 X158.7 Y89.283 E3.38572
G1 X158.66 Y89.833 E3.40039
G1 X158.541 Y90.371 E3.41505
G1 X158.345 Y90.886 E3.42971
G1 X158.077 Y91.367 E3.44436
G1 X157.587 Y91.97 E3.46504
G1 X157.47 Y92.087 E3.46944
G1 X157.053 Y92.447 E3.4841
G1 X156.589 Y92.744 E3.49876
G1 X156.086 Y92.97 E3.51343
G1 X155.556 Y93.121 E3.52809
G1 X154.783 Y93.2 E3.54877
G1 X80.217 Y93.2 E5.53283
G1 X79.667 Y93.16 E5.5475
G1 X79.129 Y93.041 E5.56216
G1 X78.614 Y92.845 E5.57683
G1 X78.133 Y92.577 E5.59148
G1 X77.53 Y92.087 E5.61215
G1 X77.413 Y91.97 E5.61655
G1 X77.053 Y91.553 E5.63121
G1 X76.756 Y91.089 E5.64587
G1 X76.53 Y90.586 E5.66054
G1 X76.379 Y90.056 E5.67521
G1 X76.3 Y89.283 E5.69588
G1 X76.3 Y73.229 E6.12305
G1 X76.338 Y72.692 E6.13737
G1 X76.343 Y72.657 E6.13831
G1 X76.5 Y71.992 E6.15649
G1 X79.34 Y63.474 E6.39541
G1 X79.552 Y62.965 E6.41008
G1 X79.835 Y62.493 E6.42472
G0 F6000 X80.195 Y62.677
G1 F1200 X80.533 Y62.28 E6.4386
G1 X80.939 Y61.931 E6.45284
G1 X81.043 Y61.855 E6.45627
G1 X81.486 Y61.581 E6.47013
G1 X81.966 Y61.377 E6.48401
G1 X82.471 Y61.249 E6.49787
G1 X83.049 Y61.2 E6.5133
G1 X92.277 Y61.2 E6.75884
G1 X110.051 Y43.239 E7.4312
G1 X110.445 Y42.898 E7.44506
G1 X110.887 Y42.621 E7.45894
G1 X111.139 Y42.501 E7.46637
G1 X111.212 Y42.47 E7.46848
G1 X111.706 Y42.304 E7.48235
G1 X112.219 Y42.215 E7.4962
G1 X112.541 Y42.2 E7.50478
G1 X143.783 Y42.2 E8.33607
G1 X144.303 Y42.24 E8.34994
G1 X144.81 Y42.359 E8.3638
G1 X145.293 Y42.554 E8.37766
G1 X145.741 Y42.82 E8.39152
G1 X146.187 Y43.196 E8.40705
G1 X146.304 Y43.313 E8.41145
G1 X146.643 Y43.709 E8.42532
G1 X146.918 Y44.151 E8.43917
G1 X147.122 Y44.631 E8.45305
G1 X147.25 Y45.136 E8.46691
G1 X147.3 Y45.717 E8.48243
G1 X147.3 Y68.046 E9.07656
G1 X156.856 Y74.996 E9.39096
G1 X157.253 Y75.334 E9.40483
G1 X157.593 Y75.729 E9.4187
G1 X157.883 Y76.197 E9.43335
G1 X157.927 Y76.283 E9.43592
G1 X158.128 Y76.764 E9.44979
G1 X158.253 Y77.27 E9.46366
G1 X158.3 Y77.832 E9.47867
G1 X158.3 Y89.283 E9.78336
G1 X158.26 Y89.803 E9.79723
G1 X158.141 Y90.31 E9.81109
G1 X157.946 Y90.793 E9.82495
G1 X157.68 Y91.241 E9.83881
G1 X157.304 Y91.687 E9.85434
G1 X157.187 Y91.804 E9.85874
G1 X156.791 Y92.143 E9.87261
G1 X156.349 Y92.418 E9.88646
G1 X155.869 Y92.622 E9.90034
G1 X155.364 Y92.75 E9.9142
G1 X154.783 Y92.8 E9.92972
G1 X80.217 Y92.8 E11.91378
G1 X79.697 Y92.76 E11.92765
G1 X79.19 Y92.641 E11.94151
G1 X78.707 Y92.446 E11.95537
G1 X78.259 Y92.18 E11.96923
G1 X77.813 Y91.804 E11.98475
G1 X77.696 Y91.687 E11.98916
G1 X77.357 Y91.291 E12.00303
G1 X77.082 Y90.849 E12.01688
G1 X76.878 Y90.369 E12.03076
G1 X76.75 Y89.864 E12.04462
G1 X76.7 Y89.283 E12.06014
G1 X76.7 Y73.229 E12.4873
G1 X76.734 Y72.748 E12.50013
G1 X76.739 Y72.713 E12.50107
G1 X76.88 Y72.119 E12.51732
G1 X79.72 Y63.601 E12.75623
G1 X79.922 Y63.12 E12.77011
G1 X80.195 Y62.677 E12.78396
G0 F6000 X80.554 Y62.864
G1 F1200 X80.881 Y62.499 E12.797
G1 X81.175 Y62.254 E12.80718
G1 X81.279 Y62.178 E12.81061
G1 X81.696 Y61.922 E12.82363
G1 X82.15 Y61.738 E12.83666
G1 X82.627 Y61.63 E12.84968
G1 X83.049 Y61.6 E12.86093
G1 X92.446 Y61.6 E13.11097
G1 X110.336 Y43.521 E13.78773
G1 X110.707 Y43.202 E13.80075
G1 X111.295 Y42.87 E13.81871
G1 X111.368 Y42.839 E13.82082
G1 X111.833 Y42.685 E13.83386
G1 X112.541 Y42.6 E13.85283
G1 X143.783 Y42.6 E14.68412
G1 X144.271 Y42.64 E14.69715
G1 X144.746 Y42.759 E14.71018
G1 X145.195 Y42.953 E14.72319
G1 X145.607 Y43.218 E14.73623
G1 X145.904 Y43.479 E14.74675
G1 X146.021 Y43.596 E14.75115
G1 X146.338 Y43.969 E14.76418
G1 X146.59 Y44.389 E14.77721
G1 X146.77 Y44.844 E14.79023
G1 X146.874 Y45.322 E14.80324
G1 X146.9 Y45.717 E14.81378
G1 X146.9 Y68.25 E15.41334
G1 X156.621 Y75.32 E15.73317
G1 X156.992 Y75.639 E15.74619
G1 X157.306 Y76.014 E15.7592
G1 X157.527 Y76.38 E15.77058
G1 X157.571 Y76.466 E15.77315
G1 X157.757 Y76.918 E15.78615
G1 X157.868 Y77.395 E15.79919
G1 X157.9 Y77.832 E15.81084
G1 X157.9 Y89.283 E16.11553
G1 X157.86 Y89.771 E16.12856
G1 X157.741 Y90.246 E16.14159
G1 X157.547 Y90.695 E16.15461
G1 X157.282 Y91.107 E16.16764
G1 X157.021 Y91.404 E16.17816
G1 X156.904 Y91.521 E16.18256
G1 X156.531 Y91.838 E16.19559
G1 X156.111 Y92.09 E16.20862
G1 X155.656 Y92.27 E16.22164
G1 X155.178 Y92.374 E16.23466
G1 X154.783 Y92.4 E16.24519
G1 X80.217 Y92.4 E18.22925
G1 X79.729 Y92.36 E18.24228
G1 X79.254 Y92.241 E18.25531
G1 X78.805 Y92.047 E18.26832
G1 X78.393 Y91.782 E18.28136
G1 X78.096 Y91.521 E18.29188
G1 X77.979 Y91.404 E18.29628
G1 X77.662 Y91.031 E18.30931
G1 X77.41 Y90.611 E18.32234
G1 X77.23 Y90.156 E18.33536
G1 X77.126 Y89.678 E18.34837
G1 X77.1 Y89.283 E18.35891
G1 X77.1 Y73.229 E18.78607
G1 X77.13 Y72.805 E18.79738
G1 X77.135 Y72.77 E18.79832
G1 X77.259 Y72.245 E18.81268
G1 X80.099 Y63.727 E19.05159
G1 X80.291 Y63.277 E19.06461
G1 X80.554 Y62.864 E19.07764
G0 F6000 X80.912 Y63.056
G1 F1200 X81.226 Y62.726 E19.08976
G1 X81.515 Y62.501 E19.0995
G1 X81.905 Y62.265 E19.11163
G1 X82.33 Y62.101 E19.12375
G1 X82.777 Y62.014 E19.13587
G1 X83.049 Y62 E19.14312
G1 X92.612 Y62 E19.39757
G1 X110.62 Y43.802 E20.07879
G1 X110.968 Y43.508 E20.09091
G1 X111.452 Y43.238 E20.10566
G1 X111.525 Y43.207 E20.10777
G1 X111.958 Y43.066 E20.11988
G1 X112.541 Y43 E20.1355
G1 X143.783 Y43 E20.96679
G1 X144.237 Y43.04 E20.97891
G1 X144.677 Y43.158 E20.99103
G1 X145.089 Y43.352 E21.00315
G1 X145.621 Y43.762 E21.02102
G1 X145.738 Y43.879 E21.02542
G1 X146.031 Y44.228 E21.03755
G1 X146.258 Y44.623 E21.04967
G1 X146.413 Y45.051 E21.06178
G1 X146.5 Y45.717 E21.07966
G1 X146.5 Y68.454 E21.68464
G1 X156.385 Y75.643 E22.00987
G1 X156.729 Y75.943 E22.02201
G1 X157.015 Y76.297 E22.03412
G1 X157.171 Y76.562 E22.0423
G1 X157.215 Y76.648 E22.04487
G1 X157.386 Y77.07 E22.05699
G1 X157.481 Y77.516 E22.06912
G1 X157.5 Y77.832 E22.07755
G1 X157.5 Y89.283 E22.38224
G1 X157.46 Y89.737 E22.39436
G1 X157.342 Y90.177 E22.40648
G1 X157.148 Y90.589 E22.4186
G1 X156.738 Y91.121 E22.43647
G1 X156.621 Y91.238 E22.44088
G1 X156.272 Y91.531 E22.453
G1 X155.877 Y91.758 E22.46512
G1 X155.449 Y91.913 E22.47723
G1 X154.783 Y92 E22.49511
G1 X80.217 Y92 E24.47917
G1 X79.763 Y91.96 E24.49129
G1 X79.323 Y91.842 E24.50341
G1 X78.911 Y91.648 E24.51553
G1 X78.379 Y91.238 E24.5334
G1 X78.262 Y91.121 E24.53781
G1 X77.969 Y90.772 E24.54993
G1 X77.742 Y90.377 E24.56205
G1 X77.587 Y89.949 E24.57417
G1 X77.5 Y89.283 E24.59204
G1 X77.5 Y73.229 E25.0192
G1 X77.526 Y72.861 E25.02902
G1 X77.531 Y72.826 E25.02996
G1 X77.638 Y72.372 E25.04237
G1 X80.478 Y63.854 E25.28128
G1 X80.66 Y63.436 E25.29342
G1 X80.912 Y63.056 E25.30555
G0 F6000 X81.267 Y63.253
G1 F1200 X81.647 Y62.9 E25.31935
G1 X81.751 Y62.824 E25.32278
G1 X82.111 Y62.61 E25.33392
G1 X82.506 Y62.468 E25.34509
G1 X83.049 Y62.4 E25.35965
G1 X92.779 Y62.4 E25.61855
G1 X110.904 Y44.084 E26.30418
G1 X111.226 Y43.815 E26.31535
G1 X111.608 Y43.606 E26.32693
G1 X111.681 Y43.575 E26.32905
G1 X112.081 Y43.449 E26.3402
G1 X112.541 Y43.4 E26.35251
G1 X143.783 Y43.4 E27.1838
G1 X144.2 Y43.44 E27.19495
G1 X144.602 Y43.558 E27.2061
G1 X144.974 Y43.751 E27.21725
G1 X145.339 Y44.044 E27.2297
G1 X145.456 Y44.161 E27.23411
G1 X145.722 Y44.485 E27.24526
G1 X145.923 Y44.852 E27.25639
G1 X146.05 Y45.252 E27.26756
G1 X146.1 Y45.717 E27.28
G1 X146.1 Y68.658 E27.89042
G1 X156.15 Y75.967 E28.22107
G1 X156.464 Y76.244 E28.23221
G1 X156.815 Y76.744 E28.24847
G1 X156.859 Y76.83 E28.25104
G1 X157.013 Y77.219 E28.26217
G1 X157.1 Y77.832 E28.27865
G1 X157.1 Y89.283 E28.58334
G1 X157.06 Y89.7 E28.59448
G1 X156.942 Y90.102 E28.60563
G1 X156.749 Y90.474 E28.61678
G1 X156.456 Y90.839 E28.62924
G1 X156.339 Y90.956 E28.63364
G1 X156.015 Y91.222 E28.64479
G1 X155.648 Y91.423 E28.65593
G1 X155.248 Y91.55 E28.66709
G1 X154.783 Y91.6 E28.67954
G1 X80.217 Y91.6 E30.6636
G1 X79.8 Y91.56 E30.67474
G1 X79.398 Y91.442 E30.68589
G1 X79.026 Y91.249 E30.69704
G1 X78.661 Y90.956 E30.7095
G1 X78.544 Y90.839 E30.7139
G1 X78.278 Y90.515 E30.72505
G1 X78.077 Y90.148 E30.73619
G1 X77.95 Y89.748 E30.74735
G1 X77.9 Y89.283 E30.7598
G1 X77.9 Y73.229 E31.18696
G1 X77.922 Y72.918 E31.19526
G1 X77.927 Y72.883 E31.1962
G1 X78.018 Y72.498 E31.20673
G1 X80.858 Y63.98 E31.44564
G1 X81.028 Y63.597 E31.45679
G1 X81.267 Y63.253 E31.46794
G0 F6000 X81.394 Y63.762
G1 F1200 X81.62 Y63.457 E31.47804
G1 X81.883 Y63.223 E31.4874
G1 X81.987 Y63.147 E31.49083
G1 X82.315 Y62.957 E31.50092
G1 X82.675 Y62.839 E31.511
G1 X83.049 Y62.8 E31.521
G1 X92.946 Y62.8 E31.78434
G1 X111.189 Y44.365 E32.47444
G1 X111.482 Y44.125 E32.48452
G1 X111.764 Y43.974 E32.49303
G1 X111.837 Y43.943 E32.49514
G1 X112.2 Y43.833 E32.50523
G1 X112.541 Y43.8 E32.51435
G1 X143.783 Y43.8 E33.34564
G1 X144.16 Y43.84 E33.35573
G1 X144.52 Y43.958 E33.36581
G1 X144.847 Y44.148 E33.37587
G1 X145.056 Y44.327 E33.38319
G1 X145.173 Y44.444 E33.38759
G1 X145.411 Y44.739 E33.39768
G1 X145.582 Y45.077 E33.40776
G1 X145.679 Y45.443 E33.41783
G1 X145.7 Y45.717 E33.42515
G1 X145.7 Y68.861 E34.04096
G1 X155.915 Y76.29 E34.37704
G1 X156.196 Y76.544 E34.38712
G1 X156.458 Y76.926 E34.39945
G1 X156.502 Y77.012 E34.40202
G1 X156.639 Y77.366 E34.41212
G1 X156.7 Y77.832 E34.42462
G1 X156.7 Y89.283 E34.72931
G1 X156.66 Y89.66 E34.7394
G1 X156.542 Y90.02 E34.74948
G1 X156.352 Y90.347 E34.75954
G1 X156.173 Y90.556 E34.76687
G1 X156.056 Y90.673 E34.77127
G1 X155.761 Y90.911 E34.78135
G1 X155.423 Y91.082 E34.79143
G1 X155.057 Y91.179 E34.80151
G1 X154.783 Y91.2 E34.80882
G1 X80.217 Y91.2 E36.79288
G1 X79.84 Y91.16 E36.80297
G1 X79.48 Y91.042 E36.81305
G1 X79.153 Y90.852 E36.82311
G1 X78.944 Y90.673 E36.83043
G1 X78.827 Y90.556 E36.83484
G1 X78.589 Y90.261 E36.84492
G1 X78.418 Y89.923 E36.855
G1 X78.321 Y89.557 E36.86508
G1 X78.3 Y89.283 E36.87239
G1 X78.3 Y73.229 E37.29955
G1 X78.318 Y72.974 E37.30636
G1 X78.323 Y72.939 E37.3073
G1 X78.397 Y72.625 E37.31588
G1 X81.237 Y64.107 E37.55479
G1 X81.394 Y63.762 E37.56488
G0 F6000 X81.76 Y63.931
G1 F1200 X81.97 Y63.672 E37.57375
G1 X82.223 Y63.47 E37.58237
G1 X82.514 Y63.306 E37.59125
G1 X82.836 Y63.216 E37.60015
G1 X83.049 Y63.2 E37.60583
G1 X93.113 Y63.2 E37.87362
G1 X111.473 Y44.646 E38.56816
G1 X111.735 Y44.439 E38.57704
G1 X111.994 Y44.311 E38.58473
G1 X112.315 Y44.218 E38.59362
G1 X112.541 Y44.2 E38.59965
G1 X143.783 Y44.2 E39.43094
G1 X144.115 Y44.24 E39.43984
G1 X144.427 Y44.357 E39.44871
G1 X144.773 Y44.61 E39.46011
G1 X144.89 Y44.727 E39.46451
G1 X145.096 Y44.99 E39.4734
G1 X145.235 Y45.294 E39.4823
G1 X145.3 Y45.717 E39.49369
G1 X145.3 Y69.066 E40.11496
G1 X155.679 Y76.614 E40.45643
G1 X155.924 Y76.841 E40.46532
G1 X156.102 Y77.108 E40.47386
G1 X156.146 Y77.194 E40.47643
G1 X156.262 Y77.508 E40.48533
G1 X156.3 Y77.832 E40.49401
G1 X156.3 Y89.283 E40.7987
G1 X156.26 Y89.615 E40.8076
G1 X156.143 Y89.927 E40.81647
G1 X155.89 Y90.273 E40.82787
G1 X155.773 Y90.39 E40.83227
G1 X155.51 Y90.596 E40.84116
G1 X155.206 Y90.735 E40.85006
G1 X154.783 Y90.8 E40.86144
G1 X80.217 Y90.8 E42.84551
G1 X79.885 Y90.76 E42.8544
G1 X79.573 Y90.643 E42.86327
G1 X79.227 Y90.39 E42.87467
G1 X79.11 Y90.273 E42.87908
G1 X78.904 Y90.01 E42.88797
G1 X78.765 Y89.706 E42.89686
G1 X78.7 Y89.283 E42.90825
G1 X78.7 Y73.229 E43.33541
G1 X78.719 Y72.996 E43.34163
G1 X78.777 Y72.751 E43.34833
G1 X81.617 Y64.233 E43.58725
G1 X81.76 Y63.931 E43.59614
G0 F6000 X82.122 Y64.107
G1 F1200 X82.355 Y63.869 E43.605
G1 X82.459 Y63.793 E43.60843
G1 X82.708 Y63.66 E43.61594
G1 X83.049 Y63.6 E43.62515
G1 X93.28 Y63.6 E43.89738
G1 X111.757 Y44.928 E44.59634
G1 X112.077 Y44.711 E44.60663
G1 X112.15 Y44.68 E44.60874
G1 X112.541 Y44.6 E44.61936
G1 X143.783 Y44.6 E45.45065
G1 X144.062 Y44.64 E45.45815
G1 X144.319 Y44.756 E45.46565
G1 X144.607 Y45.01 E45.47587
G1 X144.776 Y45.236 E45.48338
G1 X144.876 Y45.5 E45.49089
G1 X144.9 Y45.717 E45.4967
G1 X144.9 Y69.269 E46.12337
G1 X155.444 Y76.937 E46.47027
G1 X155.647 Y77.134 E46.4778
G1 X155.79 Y77.377 E46.4853
G1 X155.882 Y77.643 E46.49279
G1 X155.9 Y77.832 E46.49784
G1 X155.9 Y89.283 E46.80253
G1 X155.86 Y89.562 E46.81003
G1 X155.744 Y89.819 E46.81753
G1 X155.49 Y90.107 E46.82775
G1 X155.264 Y90.276 E46.83526
G1 X155 Y90.376 E46.84277
G1 X154.783 Y90.4 E46.84858
G1 X80.217 Y90.4 E48.83264
G1 X79.938 Y90.36 E48.84014
G1 X79.681 Y90.244 E48.84764
G1 X79.393 Y89.99 E48.85786
G1 X79.224 Y89.764 E48.86537
G1 X79.124 Y89.5 E48.87288
G1 X79.1 Y89.283 E48.87869
G1 X79.1 Y73.229 E49.30586
G1 X79.156 Y72.878 E49.31531
G1 X81.996 Y64.36 E49.55423
G1 X82.122 Y64.107 E49.56175
G0 F6000 X82.481 Y64.295
G1 F1200 X82.695 Y64.116 E49.56917
G1 X82.892 Y64.021 E49.57499
G1 X83.049 Y64 E49.5792
G1 X93.447 Y64 E49.85588
G1 X112.042 Y45.209 E50.55929
G1 X112.306 Y45.048 E50.56752
G1 X112.541 Y45 E50.5739
G1 X143.783 Y45 E51.4052
G1 X143.998 Y45.04 E51.41101
G1 X144.324 Y45.293 E51.42199
G1 X144.448 Y45.472 E51.42779
G1 X144.5 Y45.717 E51.43445
G1 X144.5 Y69.473 E52.06655
G1 X155.209 Y77.261 E52.41888
G1 X155.39 Y77.473 E52.4263
G1 X155.434 Y77.559 E52.42887
G1 X155.5 Y77.832 E52.43634
G1 X155.5 Y89.283 E52.74103
G1 X155.46 Y89.498 E52.74685
G1 X155.207 Y89.824 E52.75783
G1 X155.028 Y89.948 E52.76363
G1 X154.783 Y90 E52.77029
G1 X80.217 Y90 E54.75435
G1 X80.002 Y89.96 E54.76017
G1 X79.676 Y89.707 E54.77115
G1 X79.552 Y89.528 E54.77694
G1 X79.5 Y89.283 E54.78361
G1 X79.5 Y73.229 E55.21078
G1 X79.536 Y73.004 E55.21684
G1 X82.376 Y64.486 E55.45575
G1 X82.481 Y64.295 E55.46155
G0 F6000 X82.755 Y64.613
G1 F1200 X82.931 Y64.439 E55.46814
G1 X83.049 Y64.4 E55.47144
G1 X93.613 Y64.4 E55.75253
G1 X112.326 Y45.49 E56.46041
G1 X112.541 Y45.4 E56.46661
G1 X143.783 Y45.4 E57.2979
G1 X143.924 Y45.459 E57.30197
G1 X144.041 Y45.576 E57.30637
G1 X144.1 Y45.717 E57.31044
G1 X144.1 Y69.676 E57.94794
G1 X154.974 Y77.584 E58.3057
G1 X155.078 Y77.741 E58.31071
G1 X155.1 Y77.832 E58.3132
G1 X155.1 Y89.283 E58.61789
G1 X155.041 Y89.424 E58.62196
G1 X154.924 Y89.541 E58.62636
G1 X154.783 Y89.6 E58.63043
G1 X80.217 Y89.6 E60.61449
G1 X80.076 Y89.541 E60.61856
G1 X79.959 Y89.424 E60.62296
G1 X79.9 Y89.283 E60.62702
G1 X79.9 Y73.229 E61.05419
G1 X79.915 Y73.131 E61.05683
G1 X82.755 Y64.613 E61.29574
G1 F2700 E56.29574
G1 F300 Z0.36
G0 F6000 X133.1 Y80.8 Z0.36
G1 F300 Z0.16
G1 F2700 E61.29574
G1 F1200 X133.1 Y82.8 E61.34896
