;FLAVOR:Marlin
;TIME:8384
;Filament used: 11.1252m
;Layer height: 0.16
;MINX:77.1
;MINY:42.6
;MINZ:0.16
;MAXX:157.9
;MAXY:92.4
;MAXZ:47.88
;Generated with Cura_SteamEngine 4.13.0
M140 S60
M105
M190 S60
M104 S200
M105
M109 S200
M82 ;absolute extrusion mode
; Ender 3 Custom Start G-code
G92 E0 ; Reset Extruder
G28 ; Home all axes
G1 Z2.0 F3000 ; Move Z Axis up little to prevent scratching of Heat Bed
G1 X0.1 Y20 Z0.3 F5000.0 ; Move to start position
G1 X0.1 Y200.0 Z0.3 F1500.0 E15 ; Draw the first line
G1 X0.4 Y200.0 Z0.3 F5000.0 ; Move to side a little
G1 X0.4 Y20 Z0.3 F1500.0 E30 ; Draw the second line
G92 E0 ; Reset Extruder
G1 Z2.0 F3000 ; Move Z Axis up little to prevent scratching of Heat Bed
G1 X5 Y20 Z0.3 F5000.0 ; Move over to prevent blob squish
G92 E0
G92 E0
G1 F2700 E-5
;LAYER_COUNT:298
;LAYER:0
M107
G1 F300 Z0.36
G0 F9000 X77.453 Y44.305 Z0.36
;TYPE:SKIRT
G1 F300 Z0.16
G1 F2700 E0
G1 F2400 X77.718 Y43.893 E0.01303
G1 X77.979 Y43.596 E0.02355
G1 X78.096 Y43.479 E0.02796
G1 X78.469 Y43.162 E0.04098
G1 X78.889 Y42.91 E0.05402
G1 X79.344 Y42.73 E0.06703
G1 X79.822 Y42.626 E0.08005
G1 X80.217 Y42.6 E0.09058
G1 X154.783 Y42.6 E2.07464
G1 X155.271 Y42.64 E2.08767
G1 X155.746 Y42.759 E2.1007
G1 X156.195 Y42.953 E2.11372
G1 X156.607 Y43.218 E2.12675
G1 X156.904 Y43.479 E2.13727
G1 X157.021 Y43.596 E2.14167
G1 X157.338 Y43.969 E2.1547
G1 X157.59 Y44.389 E2.16773
G1 X157.77 Y44.844 E2.18075
G1 X157.874 Y45.322 E2.19377
G1 X157.9 Y45.717 E2.2043
G1 X157.9 Y62.371 E2.64743
G1 X157.87 Y62.795 E2.65874
G1 X157.865 Y62.83 E2.65968
G1 X157.741 Y63.355 E2.67404
G1 X154.101 Y74.273 E2.98026
G1 X153.909 Y74.723 E2.99328
G1 X153.646 Y75.136 E3.00631
G1 X153.319 Y75.501 E3.01935
G1 X153.025 Y75.746 E3.02953
G1 X152.921 Y75.822 E3.03296
G1 X152.504 Y76.078 E3.04598
G1 X152.05 Y76.262 E3.05901
G1 X151.573 Y76.37 E3.07203
G1 X151.151 Y76.4 E3.08328
G1 X140.644 Y76.4 E3.36285
G1 X124.536 Y91.557 E3.95137
G1 X124.153 Y91.862 E3.9644
G1 X123.594 Y92.157 E3.98122
G1 X123.524 Y92.185 E3.98322
G1 X123.056 Y92.33 E3.99626
G1 X122.41 Y92.4 E4.01355
G1 X88.817 Y92.4 E4.90739
G1 X88.329 Y92.36 E4.92042
G1 X87.854 Y92.241 E4.93345
G1 X87.405 Y92.047 E4.94647
G1 X86.993 Y91.782 E4.9595
G1 X86.696 Y91.521 E4.97002
G1 X86.579 Y91.404 E4.97442
G1 X86.262 Y91.031 E4.98745
G1 X86.01 Y90.611 E5.00048
G1 X85.83 Y90.156 E5.0135
G1 X85.726 Y89.678 E5.02652
G1 X85.7 Y89.283 E5.03705
G1 X85.7 Y66.351 E5.64723
G1 X78.089 Y59.273 E5.92378
G1 X77.759 Y58.911 E5.93681
G1 X77.492 Y58.501 E5.94983
G1 X77.378 Y58.267 E5.95676
G1 X77.346 Y58.193 E5.9589
G1 X77.189 Y57.729 E5.97194
G1 X77.1 Y57.002 E5.99143
G1 X77.1 Y45.717 E6.2917
G1 X77.14 Y45.229 E6.30473
G1 X77.259 Y44.754 E6.31776
G1 X77.453 Y44.305 E6.33077
G0 F9000 X77.852 Y44.411
G1 F2400 X78.262 Y43.879 E6.34864
G1 X78.379 Y43.762 E6.35304
G1 X78.728 Y43.469 E6.36517
G1 X79.123 Y43.242 E6.37729
G1 X79.551 Y43.087 E6.3894
G1 X80.217 Y43 E6.40728
G1 X154.783 Y43 E8.39134
G1 X155.237 Y43.04 E8.40346
G1 X155.677 Y43.158 E8.41558
G1 X156.089 Y43.352 E8.4277
G1 X156.621 Y43.762 E8.44557
G1 X156.738 Y43.879 E8.44998
G1 X157.031 Y44.228 E8.4621
G1 X157.258 Y44.623 E8.47422
G1 X157.413 Y45.051 E8.48633
G1 X157.5 Y45.717 E8.50421
G1 X157.5 Y62.371 E8.94734
G1 X157.474 Y62.739 E8.95715
G1 X157.469 Y62.774 E8.95809
G1 X157.362 Y63.228 E8.97051
G1 X153.722 Y74.146 E9.27673
G1 X153.54 Y74.564 E9.28886
G1 X153.289 Y74.944 E9.30098
G1 X152.974 Y75.274 E9.31312
G1 X152.685 Y75.499 E9.32287
G1 X152.295 Y75.735 E9.33499
G1 X151.87 Y75.899 E9.34712
G1 X151.423 Y75.986 E9.35923
G1 X151.151 Y76 E9.36648
G1 X140.486 Y76 E9.65026
G1 X124.262 Y91.266 E10.24301
G1 X123.904 Y91.547 E10.25512
G1 X123.446 Y91.786 E10.26886
G1 X123.376 Y91.814 E10.27087
G1 X122.939 Y91.946 E10.28301
G1 X122.41 Y92 E10.29716
G1 X88.817 Y92 E11.19101
G1 X88.363 Y91.96 E11.20314
G1 X87.923 Y91.842 E11.21526
G1 X87.511 Y91.648 E11.22737
G1 X86.979 Y91.238 E11.24525
G1 X86.862 Y91.121 E11.24965
G1 X86.569 Y90.772 E11.26177
G1 X86.342 Y90.377 E11.2739
G1 X86.187 Y89.949 E11.28601
G1 X86.1 Y89.283 E11.30388
G1 X86.1 Y66.177 E11.91869
G1 X78.361 Y58.98 E12.19989
G1 X78.056 Y58.642 E12.212
G1 X77.746 Y58.108 E12.22843
G1 X77.714 Y58.034 E12.23058
G1 X77.57 Y57.602 E12.24269
G1 X77.5 Y57.002 E12.25877
G1 X77.5 Y45.717 E12.55904
G1 X77.54 Y45.263 E12.57117
G1 X77.658 Y44.823 E12.58329
G1 X77.852 Y44.411 E12.59541
G0 F9000 X78.251 Y44.526
G1 F2400 X78.544 Y44.161 E12.60786
G1 X78.661 Y44.044 E12.61226
G1 X78.985 Y43.778 E12.62342
G1 X79.352 Y43.577 E12.63455
G1 X79.752 Y43.45 E12.64572
G1 X80.217 Y43.4 E12.65816
G1 X154.783 Y43.4 E14.64222
G1 X155.2 Y43.44 E14.65337
G1 X155.602 Y43.558 E14.66452
G1 X155.974 Y43.751 E14.67567
G1 X156.339 Y44.044 E14.68812
G1 X156.456 Y44.161 E14.69252
G1 X156.722 Y44.485 E14.70368
G1 X156.923 Y44.852 E14.71481
G1 X157.05 Y45.252 E14.72598
G1 X157.1 Y45.717 E14.73842
G1 X157.1 Y62.371 E15.18155
G1 X157.078 Y62.682 E15.18985
G1 X157.073 Y62.717 E15.19079
G1 X156.982 Y63.102 E15.20132
G1 X153.342 Y74.02 E15.50754
G1 X153.172 Y74.403 E15.51869
G1 X152.933 Y74.747 E15.52984
G1 X152.553 Y75.1 E15.54364
G1 X152.449 Y75.176 E15.54707
G1 X152.089 Y75.39 E15.55821
G1 X151.694 Y75.532 E15.56938
G1 X151.151 Y75.6 E15.58394
G1 X140.326 Y75.6 E15.87197
G1 X123.988 Y90.974 E16.4689
G1 X123.656 Y91.231 E16.48007
G1 X123.297 Y91.415 E16.49081
G1 X123.227 Y91.443 E16.49281
G1 X122.825 Y91.561 E16.50396
G1 X122.41 Y91.6 E16.51505
G1 X88.817 Y91.6 E17.4089
G1 X88.4 Y91.56 E17.42005
G1 X87.998 Y91.442 E17.43119
G1 X87.626 Y91.249 E17.44234
G1 X87.261 Y90.956 E17.4548
G1 X87.144 Y90.839 E17.4592
G1 X86.878 Y90.515 E17.47035
G1 X86.677 Y90.148 E17.48149
G1 X86.55 Y89.748 E17.49266
G1 X86.5 Y89.283 E17.5051
G1 X86.5 Y66.002 E18.12456
G1 X78.634 Y58.687 E18.41038
G1 X78.356 Y58.374 E18.42152
G1 X78.113 Y57.949 E18.43454
G1 X78.081 Y57.875 E18.43669
G1 X77.952 Y57.476 E18.44785
G1 X77.9 Y57.002 E18.46053
G1 X77.9 Y45.717 E18.76081
G1 X77.94 Y45.3 E18.77195
G1 X78.058 Y44.898 E18.7831
G1 X78.251 Y44.526 E18.79425
G0 F9000 X78.458 Y44.98
G1 F2400 X78.648 Y44.653 E18.80432
G1 X78.827 Y44.444 E18.81164
G1 X78.944 Y44.327 E18.81604
G1 X79.239 Y44.089 E18.82613
G1 X79.577 Y43.918 E18.8362
G1 X79.943 Y43.821 E18.84628
G1 X80.217 Y43.8 E18.85359
G1 X154.783 Y43.8 E20.83765
G1 X155.16 Y43.84 E20.84774
G1 X155.52 Y43.958 E20.85782
G1 X155.847 Y44.148 E20.86788
G1 X156.056 Y44.327 E20.8752
G1 X156.173 Y44.444 E20.87961
G1 X156.411 Y44.739 E20.88969
G1 X156.582 Y45.077 E20.89977
G1 X156.679 Y45.443 E20.90985
G1 X156.7 Y45.717 E20.91716
G1 X156.7 Y62.371 E21.36029
G1 X156.682 Y62.626 E21.36709
G1 X156.677 Y62.661 E21.36803
G1 X156.603 Y62.975 E21.37662
G1 X152.963 Y73.893 E21.68284
G1 X152.806 Y74.238 E21.69293
G1 X152.58 Y74.543 E21.70303
G1 X152.317 Y74.777 E21.7124
G1 X152.213 Y74.853 E21.71582
G1 X151.885 Y75.043 E21.72591
G1 X151.525 Y75.161 E21.73599
G1 X151.151 Y75.2 E21.746
G1 X140.168 Y75.2 E22.03823
G1 X123.714 Y90.683 E22.6394
G1 X123.412 Y90.912 E22.64948
G1 X123.149 Y91.043 E22.6573
G1 X123.079 Y91.071 E22.65931
G1 X122.714 Y91.174 E22.6694
G1 X122.41 Y91.2 E22.67752
G1 X88.817 Y91.2 E23.57136
G1 X88.44 Y91.16 E23.58145
G1 X88.08 Y91.042 E23.59153
G1 X87.753 Y90.852 E23.60159
G1 X87.544 Y90.673 E23.60891
G1 X87.427 Y90.556 E23.61332
G1 X87.189 Y90.261 E23.6234
G1 X87.018 Y89.923 E23.63348
G1 X86.921 Y89.557 E23.64356
G1 X86.9 Y89.283 E23.65087
G1 X86.9 Y65.828 E24.27496
G1 X78.906 Y58.394 E24.56543
G1 X78.657 Y58.108 E24.57552
G1 X78.48 Y57.79 E24.5852
G1 X78.448 Y57.716 E24.58735
G1 X78.335 Y57.355 E24.59741
G1 X78.3 Y57.002 E24.60685
G1 X78.3 Y45.717 E24.90712
G1 X78.34 Y45.34 E24.91721
G1 X78.458 Y44.98 E24.92729
G0 F9000 X78.857 Y45.073
G1 F2400 X79.11 Y44.727 E24.9387
G1 X79.227 Y44.61 E24.9431
G1 X79.49 Y44.404 E24.95199
G1 X79.794 Y44.265 E24.96088
G1 X80.217 Y44.2 E24.97227
G1 X154.783 Y44.2 E26.95633
G1 X155.115 Y44.24 E26.96523
G1 X155.427 Y44.357 E26.97409
G1 X155.773 Y44.61 E26.9855
G1 X155.89 Y44.727 E26.9899
G1 X156.096 Y44.99 E26.99879
G1 X156.235 Y45.294 E27.00768
G1 X156.3 Y45.717 E27.01907
G1 X156.3 Y62.371 E27.4622
G1 X156.281 Y62.604 E27.46842
G1 X156.223 Y62.849 E27.47512
G1 X152.583 Y73.767 E27.78135
G1 X152.44 Y74.069 E27.79024
G1 X152.23 Y74.328 E27.79911
G1 X151.977 Y74.53 E27.80773
G1 X151.686 Y74.694 E27.81661
G1 X151.364 Y74.784 E27.82551
G1 X151.151 Y74.8 E27.83119
G1 X140.009 Y74.8 E28.12766
G1 X123.439 Y90.392 E28.73306
G1 X123.171 Y90.59 E28.74193
G1 X122.93 Y90.7 E28.74898
G1 X122.607 Y90.786 E28.75787
G1 X122.41 Y90.8 E28.76313
G1 X88.817 Y90.8 E29.65697
G1 X88.485 Y90.76 E29.66587
G1 X88.173 Y90.643 E29.67474
G1 X87.827 Y90.39 E29.68614
G1 X87.71 Y90.273 E29.69054
G1 X87.504 Y90.01 E29.69943
G1 X87.365 Y89.706 E29.70833
G1 X87.3 Y89.283 E29.71971
G1 X87.3 Y65.653 E30.34846
G1 X79.179 Y58.101 E30.64354
G1 X78.963 Y57.846 E30.65243
G1 X78.815 Y57.558 E30.66105
G1 X78.72 Y57.237 E30.66996
G1 X78.7 Y57.002 E30.67623
G1 X78.7 Y45.717 E30.97651
G1 X78.74 Y45.385 E30.9854
G1 X78.857 Y45.073 E30.99427
G0 F9000 X79.256 Y45.181
G1 F2400 X79.51 Y44.893 E31.00449
G1 X79.736 Y44.724 E31.012
G1 X80 Y44.624 E31.01951
G1 X80.217 Y44.6 E31.02532
G1 X154.783 Y44.6 E33.00938
G1 X155.062 Y44.64 E33.01688
G1 X155.319 Y44.756 E33.02438
G1 X155.607 Y45.01 E33.0346
G1 X155.776 Y45.236 E33.04211
G1 X155.876 Y45.5 E33.04962
G1 X155.9 Y45.717 E33.05543
G1 X155.9 Y62.371 E33.49856
G1 X155.844 Y62.722 E33.50802
G1 X152.204 Y73.64 E33.81424
G1 X152.078 Y73.893 E33.82176
G1 X151.845 Y74.131 E33.83063
G1 X151.741 Y74.207 E33.83405
G1 X151.492 Y74.34 E33.84156
G1 X151.151 Y74.4 E33.85078
G1 X139.85 Y74.4 E34.15148
G1 X123.165 Y90.1 E34.76107
G1 X122.851 Y90.3 E34.77098
G1 X122.781 Y90.328 E34.77299
G1 X122.41 Y90.4 E34.78304
G1 X88.817 Y90.4 E35.67689
G1 X88.538 Y90.36 E35.68439
G1 X88.281 Y90.244 E35.69189
G1 X87.993 Y89.99 E35.70211
G1 X87.824 Y89.764 E35.70962
G1 X87.724 Y89.5 E35.71713
G1 X87.7 Y89.283 E35.72294
G1 X87.7 Y65.479 E36.35632
G1 X79.451 Y57.808 E36.65604
G1 X79.214 Y57.473 E36.66696
G1 X79.182 Y57.399 E36.66911
G1 X79.1 Y57.002 E36.6799
G1 X79.1 Y45.717 E36.98017
G1 X79.14 Y45.438 E36.98767
G1 X79.256 Y45.181 E36.99517
G0 F9000 X79.54 Y45.502
G1 F2400 X79.793 Y45.176 E37.00615
G1 X79.972 Y45.052 E37.01194
G1 X80.217 Y45 E37.01861
G1 X154.783 Y45 E39.00267
G1 X154.998 Y45.04 E39.00849
G1 X155.324 Y45.293 E39.01947
G1 X155.448 Y45.472 E39.02526
G1 X155.5 Y45.717 E39.03193
G1 X155.5 Y62.371 E39.47506
G1 X155.464 Y62.596 E39.48112
G1 X151.824 Y73.514 E39.78735
G1 X151.719 Y73.705 E39.79315
G1 X151.505 Y73.884 E39.80057
G1 X151.308 Y73.979 E39.80639
G1 X151.151 Y74 E39.8106
G1 X139.692 Y74 E40.11551
G1 X122.891 Y89.809 E40.72934
G1 X122.633 Y89.957 E40.73725
G1 X122.41 Y90 E40.7433
G1 X88.817 Y90 E41.63714
G1 X88.602 Y89.96 E41.64296
G1 X88.276 Y89.707 E41.65394
G1 X88.152 Y89.528 E41.65974
G1 X88.1 Y89.283 E41.6664
G1 X88.1 Y65.305 E42.30441
G1 X79.723 Y57.515 E42.60879
G1 X79.549 Y57.24 E42.61745
G1 X79.5 Y57.002 E42.62391
G1 X79.5 Y45.717 E42.92419
G1 X79.54 Y45.502 E42.93
G0 F9000 X79.959 Y45.576
G1 F2400 X80.076 Y45.459 E42.93441
G1 X80.217 Y45.4 E42.93847
G1 X154.783 Y45.4 E44.92253
G1 X154.924 Y45.459 E44.9266
G1 X155.041 Y45.576 E44.931
G1 X155.1 Y45.717 E44.93507
G1 X155.1 Y62.371 E45.3782
G1 X155.085 Y62.469 E45.38084
G1 X151.445 Y73.387 E45.68707
G1 X151.269 Y73.561 E45.69365
G1 X151.151 Y73.6 E45.69696
G1 X139.534 Y73.6 E46.00607
G1 X122.617 Y89.518 E46.62413
G1 X122.41 Y89.6 E46.63006
G1 X88.817 Y89.6 E47.52391
G1 X88.676 Y89.541 E47.52797
G1 X88.559 Y89.424 E47.53238
G1 X88.5 Y89.283 E47.53644
G1 X88.5 Y65.13 E48.17911
G1 X79.996 Y57.222 E48.4881
G1 X79.9 Y57.002 E48.49449
G1 X79.9 Y45.717 E48.79476
G1 X79.959 Y45.576 E48.79883
G1 F2700 E43.79883
G1 F300 Z0.36
G0 F9000 X120.71 Y51.8 Z0.36
G1 F300 Z0.16
G1 F2700 E48.79883
G1 F2400 X120.712 Y52.213 E48.80981
G1 X120.775 Y52.575 E48.81959
G1 X120.906 Y52.949 E48.83014
G1 X121.095 Y53.286 E48.84042
G1 X121.341 Y53.594 E48.85091
G1 X121.632 Y53.849 E48.8612
G1 X121.957 Y54.049 E48.87135
G1 X122.335 Y54.2 E48.88218
G1 X122.701 Y54.281 E48.89216
G1 X123.102 Y54.297 E48.90284
G1 X123.484 Y54.248 E48.91309
G1 X123.849 Y54.137 E48.92324
G1 X124.209 Y53.955 E48.93397
G1 X124.524 Y53.723 E48.94438
G1 X124.787 Y53.447 E48.95452
G1 X125.011 Y53.118 E48.96511
G1 X125.167 Y52.769 E48.97529
G1 X125.268 Y52.384 E48.98588
G1 X125.301 Y51.998 E48.99618
G1 X125.267 Y51.614 E49.00644
G1 X125.166 Y51.226 E49.01711
G1 X125.011 Y50.882 E49.02715
G1 X124.787 Y50.553 E49.03774
G1 X124.524 Y50.277 E49.04788
G1 X124.209 Y50.045 E49.05829
G1 X123.849 Y49.863 E49.06903
G1 X123.484 Y49.752 E49.07918
G1 X123.102 Y49.703 E49.08943
G1 X122.701 Y49.719 E49.1001
G1 X122.335 Y49.8 E49.11008
G1 X121.957 Y49.951 E49.12091
G1 X121.633 Y50.15 E49.13103
G1 X121.341 Y50.406 E49.14136
G1 X121.096 Y50.712 E49.15179
G1 X120.906 Y51.051 E49.16213
G1 X120.775 Y51.425 E49.17267
G1 X120.71 Y51.8 E49.1828
G1 F2700 E44.1828
G1 F300 Z0.36
G0 F9000 X113.6 Y64.447 Z0.36
G1 F300 Z0.16
G1 F2700 E49.1828
G1 F2400 X113.6 Y65.4 E49.20816
G1 X121.4 Y65.4 E49.4157
G1 X121.4 Y64.447 E49.44106
G1 X119.953 Y63 E49.49551
G1 X115.047 Y63 E49.62605
G1 X113.6 Y64.447 E49.6805
G0 F9000 X113.2 Y64.281
G1 F2400 X113.2 Y65.8 E49.72092
G1 X121.8 Y65.8 E49.94975
G1 X121.8 Y64.281 E49.99016
G1 X120.119 Y62.6 E50.05342
G1 X114.881 Y62.6 E50.19279
G1 X113.2 Y64.281 E50.25605
G1 F2700 E45.25605
G1 F300 Z0.36
G0 F9000 X91.5 Y52.2 Z0.36
G1 F300 Z0.16
G1 F2700 E50.25605
G1 F2400 X91.5 Y54.2 E50.30926
G1 X101.9 Y54.2 E50.58599
G1 X101.9 Y52.2 E50.6392
G1 X91.5 Y52.2 E50.91593
G0 F9000 X91.1 Y51.8
G1 F2400 X91.1 Y54.6 E50.99043
G1 X102.3 Y54.6 E51.28844
G1 X102.3 Y51.8 E51.36294
G1 X91.1 Y51.8 E51.66096
G0 F9000 X90.7 Y51.4
G1 F2400 X90.7 Y55 E51.75674
G1 X102.7 Y55 E52.07604
G1 X102.7 Y51.4 E52.17183
G1 X90.7 Y51.4 E52.49113
G0 F9000 X90.3 Y51
G1 F2400 X90.3 Y55.4 E52.6082
G1 X103.1 Y55.4 E52.94879
G1 X103.1 Y51 E53.06586
G1 X90.3 Y51 E53.40645
G0 F9000 X89.9 Y50.6
G1 F2400 X89.9 Y55.8 E53.54481
G1 X103.5 Y55.8 E53.90668
G1 X103.5 Y50.6 E54.04504
G1 X89.9 Y50.6 E54.40691
G0 F9000 X89.5 Y50.2
G1 F2400 X89.5 Y56.2 E54.56656
G1 X103.9 Y56.2 E54.94972
G1 X103.9 Y50.2 E55.10937
G1 X89.5 Y50.2 E55.49252
G0 F9000 X89.1 Y49.8
G1 F2400 X89.1 Y56.6 E55.67346
G1 X104.3 Y56.6 E56.0779
G1 X104.3 Y49.8 E56.25884
G1 X89.1 Y49.8 E56.66328
G0 F9000 X88.7 Y49.4
G1 F2400 X88.7 Y57 E56.8655
G1 X104.7 Y57 E57.29123
G1 X104.7 Y49.4 E57.49345
G1 X88.7 Y49.4 E57.91918
G1 F2700 E52.91918
G1 F300 Z0.36
;MESH:Front.STL
G0 F9000 X122.372 Y89.2 Z0.36
;TYPE:WALL-OUTER
G1 F300 Z0.16
G1 F2700 E57.91918
G1 F2400 X88.9 Y89.2 E58.80981
G1 X88.9 Y64.958 E59.45484
G1 X80.3 Y56.959 E59.76735
G1 X80.3 Y45.8 E60.06427
G1 X154.7 Y45.8 E62.04392
G1 X154.7 Y62.356 E62.48444
G1 X151.086 Y73.2 E62.78858
G1 X139.373 Y73.2 E63.10024
G1 X122.372 Y89.2 E63.72143
G0 F9000 X122.21 Y88.791
G1 F2700 E58.72143
G1 F300 Z0.36
G0 F9000 X86.906 Y54.4 Z0.36
G1 F300 Z0.16
G1 F2700 E63.72143
G1 F2400 X87.304 Y54.312 E63.73228
G1 X87.648 Y54.097 E63.74307
G1 X87.901 Y53.78 E63.75387
G1 X88.034 Y53.397 E63.76465
G1 X88.033 Y52.991 E63.77546
G1 X87.895 Y52.609 E63.78626
G1 X87.639 Y52.295 E63.79704
G1 X87.293 Y52.085 E63.80781
G1 X86.894 Y52 E63.81867
G1 X86.492 Y52.054 E63.82946
G1 X86.131 Y52.238 E63.84024
G1 X85.854 Y52.528 E63.85091
G1 X85.687 Y52.903 E63.86183
G1 X85.65 Y53.204 E63.8699
G1 X85.69 Y53.508 E63.87806
G1 X85.858 Y53.878 E63.88887
G1 X86.141 Y54.169 E63.89968
G1 X86.504 Y54.349 E63.91046
G1 X86.906 Y54.4 E63.92124
G0 F9000 X86.926 Y54.839
G1 F2700 E58.92124
G1 F300 Z0.36
G0 F9000 X123.115 Y54.699 Z0.36
G1 F300 Z0.16
G1 F2700 E63.92124
G1 F2400 X123.569 Y54.64 E63.93342
G1 X124.007 Y54.506 E63.94561
G1 X124.416 Y54.3 E63.95779
G1 X124.785 Y54.028 E63.96999
G1 X125.101 Y53.697 E63.98217
G1 X125.358 Y53.317 E63.99437
G1 X125.546 Y52.9 E64.00654
G1 X125.662 Y52.457 E64.01873
G1 X125.701 Y52 E64.03093
G1 X125.662 Y51.543 E64.04314
G1 X125.546 Y51.1 E64.05532
G1 X125.358 Y50.683 E64.06749
G1 X125.101 Y50.303 E64.0797
G1 X124.785 Y49.972 E64.09188
G1 X124.416 Y49.7 E64.10407
