;FLAVOR:Marlin
;TIME:11265
;Filament used: 14.049m
;Layer height: 0.16
;MINX:77.1
;MINY:42.6
;MINZ:0.16
;MAXX:157.9
;MAXY:92.4
;MAXZ:69.32
;Generated with Cura_SteamEngine 4.13.0
M140 S60
M105
M190 S60
M104 S200
M105
M109 S200
M82 ;absolute extrusion mode
; Ender 3 Custom Start G-code
G92 E0 ; Reset Extruder
G28 ; Home all axes
G1 Z2.0 F3000 ; Move Z Axis up little to prevent scratching of Heat Bed
G1 X0.1 Y20 Z0.3 F5000.0 ; Move to start position
G1 X0.1 Y200.0 Z0.3 F1500.0 E15 ; Draw the first line
G1 X0.4 Y200.0 Z0.3 F5000.0 ; Move to side a little
G1 X0.4 Y20 Z0.3 F1500.0 E30 ; Draw the second line
G92 E0 ; Reset Extruder
G1 Z2.0 F3000 ; Move Z Axis up little to prevent scratching of Heat Bed
G1 X5 Y20 Z0.3 F5000.0 ; Move over to prevent blob squish
G92 E0
G92 E0
G1 F2700 E-5
;LAYER_COUNT:432
;LAYER:0
M107
G1 F300 Z0.36
G0 F9000 X77.453 Y44.305 Z0.36
;TYPE:SKIRT
G1 F300 Z0.16
G1 F2700 E0
G1 F2400 X77.718 Y43.893 E0.01303
G1 X77.979 Y43.596 E0.02355
G1 X78.096 Y43.479 E0.02796
G1 X78.469 Y43.162 E0.04098
G1 X78.889 Y42.91 E0.05402
G1 X79.344 Y42.73 E0.06703
G1 X79.822 Y42.626 E0.08005
G1 X80.217 Y42.6 E0.09058
G1 X154.783 Y42.6 E2.07464
G1 X155.271 Y42.64 E2.08767
G1 X155.746 Y42.759 E2.1007
G1 X156.195 Y42.953 E2.11372
G1 X156.607 Y43.218 E2.12675
G1 X156.904 Y43.479 E2.13727
G1 X157.021 Y43.596 E2.14167
G1 X157.338 Y43.969 E2.1547
G1 X157.59 Y44.389 E2.16773
G1 X157.77 Y44.844 E2.18075
G1 X157.874 Y45.322 E2.19377
G1 X157.9 Y45.717 E2.2043
G1 X157.9 Y57.002 E2.50457
G1 X157.86 Y57.49 E2.5176
G1 X157.654 Y58.193 E2.53709
G1 X157.622 Y58.267 E2.53924
G1 X157.391 Y58.699 E2.55227
G1 X157.094 Y59.087 E2.56527
G1 X156.911 Y59.273 E2.57222
G1 X149.3 Y66.351 E2.84877
G1 X149.3 Y89.283 E3.45895
G1 X149.26 Y89.771 E3.47197
G1 X149.141 Y90.246 E3.485
G1 X148.947 Y90.695 E3.49802
G1 X148.682 Y91.107 E3.51105
G1 X148.421 Y91.404 E3.52157
G1 X148.304 Y91.521 E3.52598
G1 X147.931 Y91.838 E3.539
G1 X147.511 Y92.09 E3.55203
G1 X147.056 Y92.27 E3.56505
G1 X146.578 Y92.374 E3.57807
G1 X146.183 Y92.4 E3.5886
G1 X112.59 Y92.4 E4.48245
G1 X112.102 Y92.36 E4.49548
G1 X111.476 Y92.185 E4.51277
G1 X111.406 Y92.157 E4.51478
G1 X110.968 Y91.939 E4.5278
G1 X110.464 Y91.557 E4.54462
G1 X94.356 Y76.4 E5.13314
G1 X83.849 Y76.4 E5.41271
G1 X83.361 Y76.36 E5.42574
G1 X82.886 Y76.241 E5.43877
G1 X82.437 Y76.047 E5.45178
G1 X82.079 Y75.822 E5.46303
G1 X81.975 Y75.746 E5.46646
G1 X81.605 Y75.426 E5.47948
G1 X81.291 Y75.05 E5.49251
G1 X81.043 Y74.628 E5.50554
G1 X80.899 Y74.273 E5.51573
G1 X77.259 Y63.355 E5.82196
G1 X77.141 Y62.869 E5.83526
G1 X77.136 Y62.837 E5.83613
G1 X77.1 Y62.374 E5.84848
G1 X77.1 Y45.717 E6.29169
G1 X77.14 Y45.229 E6.30472
G1 X77.259 Y44.754 E6.31775
G1 X77.453 Y44.305 E6.33077
G0 F9000 X77.852 Y44.411
G1 F2400 X78.262 Y43.879 E6.34864
G1 X78.379 Y43.762 E6.35304
G1 X78.728 Y43.469 E6.36517
G1 X79.123 Y43.242 E6.37729
G1 X79.551 Y43.087 E6.3894
G1 X80.217 Y43 E6.40727
G1 X154.783 Y43 E8.39133
G1 X155.237 Y43.04 E8.40346
G1 X155.677 Y43.158 E8.41558
G1 X156.089 Y43.352 E8.4277
G1 X156.621 Y43.762 E8.44557
G1 X156.738 Y43.879 E8.44997
G1 X157.031 Y44.228 E8.4621
G1 X157.258 Y44.623 E8.47422
G1 X157.413 Y45.051 E8.48633
G1 X157.5 Y45.717 E8.5042
G1 X157.5 Y57.002 E8.80447
G1 X157.46 Y57.456 E8.8166
G1 X157.286 Y58.034 E8.83266
G1 X157.254 Y58.108 E8.83481
G1 X157.038 Y58.509 E8.84693
G1 X156.639 Y58.98 E8.86335
G1 X148.9 Y66.177 E9.14455
G1 X148.9 Y89.283 E9.75936
G1 X148.86 Y89.737 E9.77149
G1 X148.742 Y90.177 E9.78361
G1 X148.548 Y90.589 E9.79573
G1 X148.138 Y91.121 E9.8136
G1 X148.021 Y91.238 E9.818
G1 X147.672 Y91.531 E9.83013
G1 X147.277 Y91.758 E9.84225
G1 X146.849 Y91.913 E9.85436
G1 X146.183 Y92 E9.87223
G1 X112.59 Y92 E10.76608
G1 X112.136 Y91.96 E10.7782
G1 X111.624 Y91.814 E10.79237
G1 X111.554 Y91.786 E10.79438
G1 X111.148 Y91.58 E10.80649
G1 X110.738 Y91.266 E10.82023
G1 X94.514 Y76 E11.41298
G1 X83.849 Y76 E11.69676
G1 X83.395 Y75.96 E11.70889
G1 X82.955 Y75.842 E11.72101
G1 X82.543 Y75.648 E11.73312
G1 X82.315 Y75.499 E11.74037
G1 X82.211 Y75.423 E11.7438
G1 X81.868 Y75.123 E11.75592
G1 X81.583 Y74.768 E11.76804
G1 X81.364 Y74.368 E11.78017
G1 X81.278 Y74.146 E11.78651
G1 X77.638 Y63.228 E12.09273
G1 X77.536 Y62.807 E12.10426
G1 X77.531 Y62.775 E12.10512
G1 X77.5 Y62.374 E12.11582
G1 X77.5 Y45.717 E12.55903
G1 X77.54 Y45.263 E12.57116
G1 X77.658 Y44.823 E12.58328
G1 X77.852 Y44.411 E12.5954
G0 F9000 X78.251 Y44.526
G1 F2400 X78.544 Y44.161 E12.60785
G1 X78.661 Y44.044 E12.61226
G1 X78.985 Y43.778 E12.62341
G1 X79.352 Y43.577 E12.63454
G1 X79.752 Y43.45 E12.64571
G1 X80.217 Y43.4 E12.65815
G1 X154.783 Y43.4 E14.64221
G1 X155.2 Y43.44 E14.65336
G1 X155.602 Y43.558 E14.66451
G1 X155.974 Y43.751 E14.67566
G1 X156.339 Y44.044 E14.68811
G1 X156.456 Y44.161 E14.69252
G1 X156.722 Y44.485 E14.70367
G1 X156.923 Y44.852 E14.7148
G1 X157.05 Y45.252 E14.72597
G1 X157.1 Y45.717 E14.73842
G1 X157.1 Y57.002 E15.03869
G1 X157.06 Y57.419 E15.04983
G1 X156.919 Y57.875 E15.06253
G1 X156.887 Y57.949 E15.06468
G1 X156.685 Y58.316 E15.07583
G1 X156.366 Y58.687 E15.08885
G1 X148.5 Y66.002 E15.37466
G1 X148.5 Y89.283 E15.99412
G1 X148.46 Y89.7 E16.00527
G1 X148.342 Y90.102 E16.01642
G1 X148.149 Y90.474 E16.02757
G1 X147.856 Y90.839 E16.04002
G1 X147.739 Y90.956 E16.04443
G1 X147.415 Y91.222 E16.05558
G1 X147.048 Y91.423 E16.06671
G1 X146.648 Y91.55 E16.07788
G1 X146.183 Y91.6 E16.09032
G1 X112.59 Y91.6 E16.98417
G1 X112.173 Y91.56 E16.99532
G1 X111.773 Y91.443 E17.00641
G1 X111.703 Y91.415 E17.00841
G1 X111.33 Y91.223 E17.01958
G1 X111.012 Y90.974 E17.03032
G1 X94.674 Y75.6 E17.62725
G1 X83.849 Y75.6 E17.91528
G1 X83.432 Y75.56 E17.92643
G1 X83.03 Y75.442 E17.93758
G1 X82.551 Y75.176 E17.95216
G1 X82.447 Y75.1 E17.95558
G1 X82.134 Y74.822 E17.96672
G1 X81.879 Y74.489 E17.97788
G1 X81.658 Y74.02 E17.99168
G1 X78.018 Y63.102 E18.29791
G1 X77.931 Y62.746 E18.30766
G1 X77.926 Y62.714 E18.30852
G1 X77.9 Y62.374 E18.31759
G1 X77.9 Y45.717 E18.7608
G1 X77.94 Y45.3 E18.77195
G1 X78.058 Y44.898 E18.7831
G1 X78.251 Y44.526 E18.79425
G0 F9000 X78.458 Y44.98
G1 F2400 X78.648 Y44.653 E18.80431
G1 X78.827 Y44.444 E18.81163
G1 X78.944 Y44.327 E18.81604
G1 X79.239 Y44.089 E18.82612
G1 X79.577 Y43.918 E18.8362
G1 X79.943 Y43.821 E18.84628
G1 X80.217 Y43.8 E18.85359
G1 X154.783 Y43.8 E20.83765
G1 X155.16 Y43.84 E20.84774
G1 X155.52 Y43.958 E20.85782
G1 X155.847 Y44.148 E20.86788
G1 X156.056 Y44.327 E20.8752
G1 X156.173 Y44.444 E20.8796
G1 X156.411 Y44.739 E20.88969
G1 X156.582 Y45.077 E20.89977
G1 X156.679 Y45.443 E20.90984
G1 X156.7 Y45.717 E20.91715
G1 X156.7 Y57.002 E21.21743
G1 X156.66 Y57.379 E21.22751
G1 X156.552 Y57.716 E21.23693
G1 X156.52 Y57.79 E21.23908
G1 X156.334 Y58.12 E21.24916
G1 X156.094 Y58.394 E21.25885
G1 X148.1 Y65.828 E21.54931
G1 X148.1 Y89.283 E22.17341
G1 X148.06 Y89.66 E22.18349
G1 X147.942 Y90.02 E22.19357
G1 X147.752 Y90.347 E22.20364
G1 X147.573 Y90.556 E22.21096
G1 X147.456 Y90.673 E22.21536
G1 X147.161 Y90.911 E22.22545
G1 X146.823 Y91.082 E22.23553
G1 X146.457 Y91.179 E22.2456
G1 X146.183 Y91.2 E22.25291
G1 X112.59 Y91.2 E23.14676
G1 X112.213 Y91.16 E23.15685
G1 X111.921 Y91.071 E23.16497
G1 X111.851 Y91.043 E23.16697
G1 X111.516 Y90.866 E23.17706
G1 X111.286 Y90.683 E23.18488
G1 X94.832 Y75.2 E23.78604
G1 X83.849 Y75.2 E24.07828
G1 X83.472 Y75.16 E24.08837
G1 X83.112 Y75.042 E24.09845
G1 X82.787 Y74.853 E24.10845
G1 X82.683 Y74.777 E24.11188
G1 X82.402 Y74.523 E24.12196
G1 X82.181 Y74.215 E24.13204
G1 X82.037 Y73.893 E24.14143
G1 X78.397 Y62.975 E24.44766
G1 X78.327 Y62.684 E24.45562
G1 X78.322 Y62.652 E24.45648
G1 X78.3 Y62.374 E24.4639
G1 X78.3 Y45.717 E24.90711
G1 X78.34 Y45.34 E24.9172
G1 X78.458 Y44.98 E24.92728
G0 F9000 X78.857 Y45.073
G1 F2400 X79.11 Y44.727 E24.93869
G1 X79.227 Y44.61 E24.94309
G1 X79.49 Y44.404 E24.95198
G1 X79.794 Y44.265 E24.96087
G1 X80.217 Y44.2 E24.97226
G1 X154.783 Y44.2 E26.95632
G1 X155.115 Y44.24 E26.96522
G1 X155.427 Y44.357 E26.97408
G1 X155.773 Y44.61 E26.98549
G1 X155.89 Y44.727 E26.98989
G1 X156.096 Y44.99 E26.99878
G1 X156.235 Y45.294 E27.00767
G1 X156.3 Y45.717 E27.01906
G1 X156.3 Y57.002 E27.31933
G1 X156.26 Y57.334 E27.32823
G1 X156.153 Y57.632 E27.33666
G1 X155.985 Y57.92 E27.34553
G1 X155.821 Y58.101 E27.35203
G1 X147.7 Y65.653 E27.64711
G1 X147.7 Y89.283 E28.27586
G1 X147.66 Y89.615 E28.28475
G1 X147.543 Y89.927 E28.29362
G1 X147.29 Y90.273 E28.30502
G1 X147.173 Y90.39 E28.30943
G1 X146.91 Y90.596 E28.31832
G1 X146.606 Y90.735 E28.32721
G1 X146.183 Y90.8 E28.3386
G1 X112.59 Y90.8 E29.23244
G1 X112.258 Y90.76 E29.24134
G1 X112 Y90.672 E29.2486
G1 X111.707 Y90.512 E29.25748
G1 X111.561 Y90.392 E29.26251
G1 X94.991 Y74.8 E29.86791
G1 X83.849 Y74.8 E30.16437
G1 X83.517 Y74.76 E30.17327
G1 X83.205 Y74.643 E30.18214
G1 X82.919 Y74.454 E30.19126
G1 X82.675 Y74.226 E30.20015
G1 X82.491 Y73.947 E30.20904
G1 X82.417 Y73.767 E30.21422
G1 X78.777 Y62.849 E30.52044
G1 X78.717 Y62.59 E30.52752
G1 X78.7 Y62.374 E30.53328
G1 X78.7 Y45.717 E30.97649
G1 X78.74 Y45.385 E30.98539
G1 X78.857 Y45.073 E30.99426
G0 F9000 X79.256 Y45.181
G1 F2400 X79.51 Y44.893 E31.00448
G1 X79.736 Y44.724 E31.01199
G1 X80 Y44.624 E31.0195
G1 X80.217 Y44.6 E31.02531
G1 X154.783 Y44.6 E33.00937
G1 X155.062 Y44.64 E33.01687
G1 X155.319 Y44.756 E33.02437
G1 X155.607 Y45.01 E33.03459
G1 X155.776 Y45.236 E33.04209
G1 X155.876 Y45.5 E33.04961
G1 X155.9 Y45.717 E33.05542
G1 X155.9 Y57.002 E33.35569
G1 X155.818 Y57.399 E33.36647
G1 X155.786 Y57.473 E33.36862
G1 X155.549 Y57.808 E33.37954
G1 X147.3 Y65.479 E33.67927
G1 X147.3 Y89.283 E34.31265
G1 X147.26 Y89.562 E34.32015
G1 X147.144 Y89.819 E34.32765
G1 X146.89 Y90.107 E34.33787
G1 X146.664 Y90.276 E34.34538
G1 X146.4 Y90.376 E34.35289
G1 X146.183 Y90.4 E34.3587
G1 X112.59 Y90.4 E35.25254
G1 X112.219 Y90.328 E35.2626
G1 X112.149 Y90.3 E35.2646
G1 X111.835 Y90.1 E35.27451
G1 X95.15 Y74.4 E35.88411
G1 X83.849 Y74.4 E36.18481
G1 X83.57 Y74.36 E36.19231
G1 X83.259 Y74.207 E36.20153
G1 X83.155 Y74.131 E36.20496
G1 X82.953 Y73.934 E36.21246
G1 X82.796 Y73.64 E36.22133
G1 X79.156 Y62.722 E36.52756
G1 X79.1 Y62.374 E36.53694
G1 X79.1 Y45.717 E36.98015
G1 X79.14 Y45.438 E36.98765
G1 X79.256 Y45.181 E36.99515
G0 F9000 X79.54 Y45.502
G1 F2400 X79.793 Y45.176 E37.00613
G1 X79.972 Y45.052 E37.01192
G1 X80.217 Y45 E37.01859
G1 X154.783 Y45 E39.00265
G1 X154.998 Y45.04 E39.00847
G1 X155.324 Y45.293 E39.01945
G1 X155.448 Y45.472 E39.02524
G1 X155.5 Y45.717 E39.03191
G1 X155.5 Y57.002 E39.33218
G1 X155.419 Y57.314 E39.34076
G1 X155.277 Y57.515 E39.3473
G1 X146.9 Y65.305 E39.65168
G1 X146.9 Y89.283 E40.28969
G1 X146.86 Y89.498 E40.29551
G1 X146.607 Y89.824 E40.30649
G1 X146.428 Y89.948 E40.31228
G1 X146.183 Y90 E40.31895
G1 X112.59 Y90 E41.2128
G1 X112.297 Y89.929 E41.22082
G1 X112.109 Y89.809 E41.22675
G1 X95.308 Y74 E41.84059
G1 X83.849 Y74 E42.14549
G1 X83.634 Y73.96 E42.15131
G1 X83.391 Y73.808 E42.15893
G1 X83.241 Y73.65 E42.16473
G1 X83.176 Y73.514 E42.16874
G1 X79.536 Y62.596 E42.47497
G1 X79.5 Y62.374 E42.48095
G1 X79.5 Y45.717 E42.92416
G1 X79.54 Y45.502 E42.92998
G0 F9000 X79.959 Y45.576
G1 F2400 X80.076 Y45.459 E42.93438
G1 X80.217 Y45.4 E42.93845
G1 X154.783 Y45.4 E44.92251
G1 X154.924 Y45.459 E44.92658
G1 X155.041 Y45.576 E44.93098
G1 X155.1 Y45.717 E44.93505
G1 X155.1 Y57.002 E45.23532
G1 X155.004 Y57.222 E45.24171
G1 X146.5 Y65.13 E45.5507
G1 X146.5 Y89.283 E46.19337
G1 X146.441 Y89.424 E46.19743
G1 X146.324 Y89.541 E46.20183
G1 X146.183 Y89.6 E46.2059
G1 X112.59 Y89.6 E47.09975
G1 X112.383 Y89.518 E47.10567
G1 X95.466 Y73.6 E47.72374
G1 X83.849 Y73.6 E48.03285
G1 X83.627 Y73.485 E48.0395
G1 X83.555 Y73.387 E48.04274
G1 X79.915 Y62.469 E48.34896
G1 X79.9 Y62.374 E48.35152
G1 X79.9 Y45.717 E48.79473
G1 X79.959 Y45.576 E48.7988
G1 F2700 E43.7988
G1 F300 Z0.36
;MESH:Back.STL
G0 F9000 X112.628 Y89.2 Z0.36
;TYPE:WALL-OUTER
G1 F300 Z0.16
G1 F2700 E48.7988
G1 F2400 X95.627 Y73.2 E49.41999
G1 X83.914 Y73.2 E49.73165
G1 X80.3 Y62.356 E50.03579
G1 X80.3 Y45.8 E50.47632
G1 X154.7 Y45.8 E52.45596
G1 X154.7 Y56.959 E52.75288
G1 X146.1 Y64.958 E53.06539
G1 X146.1 Y89.2 E53.71043
G1 X112.628 Y89.2 E54.60105
G0 F9000 X112.79 Y88.791
G0 X112.786 Y88.8
;TYPE:WALL-INNER
G1 F2400 X95.786 Y72.8 E55.22222
G1 X84.202 Y72.8 E55.53045
G1 X80.7 Y62.293 E55.82514
G1 X80.7 Y46.2 E56.25335
G1 X154.3 Y46.2 E58.2117
G1 X154.3 Y56.785 E58.49335
G1 X145.7 Y64.784 E58.80586
G1 X145.7 Y88.8 E59.44488
G1 X112.786 Y88.8 E60.32066
G0 F9000 X112.944 Y88.4
G1 F2400 X95.945 Y72.4 E60.94182
G1 X84.49 Y72.4 E61.24661
G1 X81.1 Y62.23 E61.53185
G1 X81.1 Y46.6 E61.94774
G1 X153.9 Y46.6 E63.88481
G1 X153.9 Y56.611 E64.15118
G1 X145.3 Y64.61 E64.46369
G1 X145.3 Y88.4 E65.0967
G1 X112.944 Y88.4 E65.95763
G0 F9000 X113.099 Y88.01
;TYPE:SKIN
G1 F2400 X96.099 Y72.01 E66.5788
G1 X84.771 Y72.01 E66.88022
G1 X81.49 Y62.167 E67.15629
G1 X81.49 Y46.99 E67.56012
G1 X153.51 Y46.99 E69.47644
G1 X153.51 Y56.443 E69.72797
G1 X144.91 Y64.44 E70.04044
G1 X144.91 Y88.01 E70.66759
G1 X113.099 Y88.01 E71.51402
G1 F2700 E66.51402
G1 F300 Z0.36
G0 F9000 X85.426 Y71.85 Z0.36
G1 F300 Z0.16
G1 F2700 E71.51402
G1 F2400 X84.614 Y71.038 E71.54458
G0 F9000 X84.331 Y70.189
G1 F2400 X85.992 Y71.85 E71.60708
G0 F9000 X86.558 Y71.85
G1 F2400 X84.048 Y69.341 E71.70151
G0 F9000 X83.765 Y68.492
G1 F2400 X87.124 Y71.85 E71.82789
G0 F9000 X87.689 Y71.85
G1 F2400 X83.483 Y67.643 E71.98618
G0 F9000 X83.2 Y66.795
G1 F2400 X88.255 Y71.85 E72.1764
G0 F9000 X88.821 Y71.85
G1 F2400 X82.917 Y65.946 E72.39856
G0 F9000 X82.634 Y65.098
G1 F2400 X89.386 Y71.85 E72.65264
G0 F9000 X89.952 Y71.85
G1 F2400 X82.351 Y64.249 E72.93866
G0 F9000 X82.068 Y63.401
G1 F2400 X90.518 Y71.85 E73.25661
G0 F9000 X91.083 Y71.85
G1 F2400 X81.786 Y62.552 E73.60647
G0 F9000 X81.648 Y61.849
G1 F2400 X91.649 Y71.85 E73.9828
G0 F9000 X92.215 Y71.85
G1 F2400 X81.648 Y61.284 E74.38042
G0 F9000 X81.648 Y60.718
G1 F2400 X92.78 Y71.85 E74.79931
G0 F9000 X93.346 Y71.85
G1 F2400 X81.648 Y60.152 E75.2395
G0 F9000 X81.648 Y59.587
G1 F2400 X93.912 Y71.85 E75.70097
G0 F9000 X94.477 Y71.85
G1 F2400 X81.648 Y59.021 E76.18372
G0 F9000 X81.648 Y58.455
G1 F2400 X95.043 Y71.85 E76.68777
G0 F9000 X95.609 Y71.85
G1 F2400 X81.648 Y57.89 E77.21309
G0 F9000 X81.648 Y57.324
G1 F2400 X96.378 Y72.054 E77.76738
G1 F2700 E72.76738
G1 F300 Z0.36
G0 F9000 X105.996 Y81.105 Z0.36
G1 F300 Z0.16
G1 F2700 E77.76738
G1 F2400 X81.648 Y56.758 E78.68356
G0 F9000 X81.648 Y56.193
G1 F2400 X113.306 Y87.85 E79.87482
G0 F9000 X113.871 Y87.85
G1 F2400 X81.648 Y55.627 E81.08736
G0 F9000 X81.648 Y55.061
G1 F2400 X114.437 Y87.85 E82.32119
G0 F9000 X115.003 Y87.85
G1 F2400 X81.648 Y54.496 E83.57631
G0 F9000 X81.648 Y53.93
G1 F2400 X115.568 Y87.85 E84.8527
G0 F9000 X116.134 Y87.85
G1 F2400 X81.648 Y53.364 E86.15039
G0 F9000 X81.648 Y52.798
G1 F2400 X116.7 Y87.85 E87.46939
G0 F9000 X117.265 Y87.85
G1 F2400 X81.648 Y52.233 E88.80964
G0 F9000 X81.648 Y51.667
G1 F2400 X117.831 Y87.85 E90.17119
G0 F9000 X118.397 Y87.85
G1 F2400 X81.648 Y51.101 E91.55403
G0 F9000 X81.648 Y50.536
G1 F2400 X118.962 Y87.85 E92.95814
G0 F9000 X119.528 Y87.85
G1 F2400 X81.648 Y49.97 E94.38355
G0 F9000 X81.648 Y49.404
G1 F2400 X120.094 Y87.85 E95.83026
G0 F9000 X120.659 Y87.85
G1 F2400 X81.648 Y48.839 E97.29822
G0 F9000 X81.648 Y48.273
G1 F2400 X121.225 Y87.85 E98.78749
G0 F9000 X121.791 Y87.85
G1 F2400 X81.648 Y47.707 E100.29805
G0 F9000 X81.656 Y47.149
G1 F2400 X122.357 Y87.85 E101.82961
G0 F9000 X122.922 Y87.85
G1 F2400 X82.222 Y47.149 E103.36115
G0 F9000 X82.788 Y47.149
G1 F2400 X123.488 Y87.85 E104.89269
G0 F9000 X124.054 Y87.85
G1 F2400 X83.353 Y47.149 E106.42425
G0 F9000 X83.919 Y47.149
G1 F2400 X124.619 Y87.85 E107.95579
G0 F9000 X125.185 Y87.85
G1 F2400 X84.485 Y47.149 E109.48734
G0 F9000 X85.05 Y47.149
G1 F2400 X125.751 Y87.85 E111.0189
G0 F9000 X126.316 Y87.85
G1 F2400 X85.616 Y47.149 E112.55044
G0 F9000 X86.182 Y47.149
G1 F2400 X126.882 Y87.85 E114.08198
G0 F9000 X127.448 Y87.85
G1 F2400 X86.747 Y47.149 E115.61354
G0 F9000 X87.313 Y47.149
G1 F2400 X128.013 Y87.85 E117.14508
G0 F9000 X128.579 Y87.85
G1 F2400 X87.879 Y47.149 E118.67662
